;FLAVOR:Marlin
;TIME:6666
;Filament used: 0m
;Layer height: 0.2
;MINX:2.14748e+06
;MINY:2.14748e+06
;MINZ:2.14748e+06
;MAXX:-2.14748e+06
;MAXY:-2.14748e+06
;MAXZ:-2.14748e+06
;TARGET_MACHINE.NAME:Unknown

;Generated with Cura_SteamEngine 5.11.0
M104 S210
M105
M109 S210
G28 ;Home
G1 Z15.0 F6000 ;Move the platform down 15mm
G92 E0
G1 F200 E3
G92 E0
M82 ;absolute extrusion mode
M83 ;relative extrusion mode
G1 F1500 E-1
;LAYER_COUNT:281
;LAYER:0
;note -- min layer time used
M106 S255
;MESH:C:\Users\jacob\OneDrive\Documents\Research\Core-R-Theta\EasyS4\output_models\deformed\dino_1773792543.8137462_deformed_tet.stl
G0 F3600 X5.347 Y-1.406 Z0.3
;TYPE:WALL-INNER
G1 F1500 E1
G1 F600 X5.703 Y-1.71 E0.00881
G1 X5.719 Y-1.886 E0.00332
G1 X5.649 Y-2.29 E0.00771
G1 X3.922 Y-5.426 E0.06734
G1 X2.98 Y-.788 E0.08902
G1 X5.347 Y-1.406 E0.04602
G0 F3600 X5.537 Y-1.042
;TYPE:WALL-OUTER
G1 F600 X6.087 Y-1.512 E0.01361
G1 X6.122 Y-1.903 E0.00738
G1 X6.032 Y-2.424 E0.00995
G1 X3.747 Y-6.573 E0.0891
G1 X2.46 Y-.239 E0.12158
G1 X5.537 Y-1.042 E0.05982
G0 F3600 X5.689 Y-1.172
G0 X5.316 Y-1.882
;TYPE:SKIN
G1 F600 X5.168 Y-1.754 E0.00368
G1 X3.473 Y-1.311 E0.03295
G1 X4.087 Y-4.336 E0.05806
G1 X5.282 Y-2.165 E0.04662
G1 X5.316 Y-1.882 E0.00536
G0 F3600 X4 Y-1.657
G1 F600 X3.789 Y-1.867 E0.0056
G0 F3600 X3.885 Y-2.338
G1 F600 X4.449 Y-1.773 E0.01502
G0 F3600 X4.897 Y-1.891
G1 F600 X3.98 Y-2.808 E0.02439
G0 F3600 X4.076 Y-3.278
G1 F600 X4.888 Y-2.466 E0.0216
G1 X4.958 Y-2.396
G0 F3600 X4.912 Y-2.372
G1 F1500 E-1
;MESH:NONMESH
G0 F600 X4.912 Y-2.372 Z0.5
G0 F3600 X2.747 Y-.54
G0 X1.684 Y-.754
G0 X0.478 Y1.099
;TIME_ELAPSED:6.311077
;LAYER:1
;TYPE:WALL-INNER
;MESH:C:\Users\jacob\OneDrive\Documents\Research\Core-R-Theta\EasyS4\output_models\deformed\dino_1773792543.8137462_deformed_tet.stl
G1 F1500 E1
G1 F2700 X5.175 Y-.138 E0.06091
G1 X6.624 Y-1.367 E0.02383
G1 X6.715 Y-2.364 E0.01255
G1 X6.477 Y-3.746 E0.01759
G1 X2.664 Y-10.65 E0.09891
G1 X2.114 Y-11.365 E0.01131
G1 X1.899 Y-11.504 E0.00321
G1 X1.434 Y-11.134 E0.00745
G1 X-.561 Y-.255 E0.1387
G1 X-.849 Y0.952 E0.01556
G1 X-.844 Y1.164 E0.00266
G1 X-.2 Y1.23 E0.00812
G1 X0.478 Y1.099 E0.00866
G0 F5400 X0.567 Y1.489
;TYPE:WALL-OUTER
G1 F1800 X5.365 Y0.226 E0.06222
G1 X7.008 Y-1.168 E0.02702
G1 X7.118 Y-2.38 E0.01526
G1 X6.86 Y-3.88 E0.01909
G1 X3 Y-10.87 E0.10013
G1 X2.39 Y-11.663 E0.01255
G1 X2.044 Y-11.887 E0.00517
G1 X1.717 Y-11.871 E0.00411
G1 X1.068 Y-11.354 E0.01041
G1 X-.957 Y-.317 E0.14072
G1 X-1.251 Y0.91 E0.01582
G1 X-1.236 Y1.526 E0.00773
G1 X-.182 Y1.634 E0.01329
G1 X0.567 Y1.489 E0.00957
G0 F5400 X0.76 Y1.439
G0 X0.58 Y0.751
G0 X-.189 Y-.178
;TYPE:SKIN
G1 F1800 X1.784 Y-10.923 E0.137
G1 X1.898 Y-11.016 E0.00184
G1 X2.348 Y-10.433 E0.00924
G1 X6.112 Y-3.616 E0.09765
G1 X6.33 Y-2.352 E0.01609
G1 X6.256 Y-1.556 E0.01003
G1 X4.997 Y-.486 E0.02072
G1 X0.423 Y0.721 E0.05932
G1 X-.214 Y0.842 E0.00813
G1 X-.424 Y0.822 E0.00265
G1 X-.189 Y-.178 E0.01288
G0 F5400 X6.11 Y-2.15
G1 F1800 X4.529 Y-.569 E0.02804
G0 F5400 X3.76 Y-.366
G1 F1800 X6.071 Y-2.676 E0.04098
G0 F5400 X5.988 Y-3.159
G1 F1800 X2.992 Y-.164 E0.05312
G0 F5400 X2.224 Y0.039
G1 F1800 X5.882 Y-3.619 E0.06487
G0 F5400 X5.68 Y-3.983
G1 F1800 X1.455 Y0.242 E0.07493
G0 F5400 X0.687 Y0.445
G1 F1800 X5.479 Y-4.348 E0.08499
G0 F5400 X5.278 Y-4.712
G1 F1800 X-0.04 Y0.605 E0.0943
G0 F5400 X-0.033 Y0.033
G1 F1800 X5.076 Y-5.076 E0.09061
G0 F5400 X4.876 Y-5.441
G1 F1800 X0.105 Y-.671 E0.0846
G0 F5400 X0.233 Y-1.364
G1 F1800 X4.674 Y-5.805 E0.07876
G0 F5400 X4.473 Y-6.17
G1 F1800 X0.36 Y-2.057 E0.07294
G0 F5400 X0.487 Y-2.75
G1 F1800 X4.272 Y-6.534 E0.06712
G0 F5400 X4.07 Y-6.899
G1 F1800 X0.614 Y-3.443 E0.06129
G0 F5400 X0.741 Y-4.135
G1 F1800 X3.869 Y-7.263 E0.05547
G0 F5400 X3.668 Y-7.628
G1 F1800 X0.868 Y-4.828 E0.04966
G0 F5400 X0.996 Y-5.521
G1 F1800 X3.467 Y-7.992 E0.04382
G0 F5400 X3.265 Y-8.357
G1 F1800 X1.123 Y-6.214 E0.038
G0 F5400 X1.25 Y-6.907
G1 F1800 X3.064 Y-8.721 E0.03217
G0 F5400 X2.863 Y-9.086
G1 F1800 X1.377 Y-7.6 E0.02635
G0 F5400 X1.504 Y-8.292
G1 F1800 X2.662 Y-9.45 E0.02054
G0 F5400 X2.461 Y-9.815
G1 F1800 X1.631 Y-8.985 E0.01472
G0 F5400 X1.759 Y-9.678
G1 F1800 X2.259 Y-10.179 E0.00888
G0 F5400 X2.032 Y-10.517
G1 F1800 X1.886 Y-10.371 E0.00259
G0 F5400 X1.914 Y-10.365
;MESH:NONMESH
G0 F600 X1.914 Y-10.365 Z0.7
G0 F5400 X3.435 Y-2.222
;TIME_ELAPSED:13.243006
;LAYER:2
;TYPE:FILL
;MESH:C:\Users\jacob\OneDrive\Documents\Research\Core-R-Theta\EasyS4\output_models\deformed\dino_1773792543.8137462_deformed_tet.stl
G1 F3600 X4.346 Y-1.311 E0.01616
G1 X4.416 Y-1.241
G0 F7200 X3.746 Y-3.746
G1 F3600 X4.34 Y-4.34 E0.01053
G1 X4.41 Y-4.41
G0 F7200 X2.093 Y-11.755
G0 X2.197 Y-12.049
;TYPE:WALL-INNER
G1 F3600 X1.89 Y-12.086 E0.00388
G1 X1.401 Y-12.005 E0.00622
G1 X-.238 Y-10.695 E0.02631
G1 X-1.765 Y-2.379 E0.10603
G1 X-2.458 Y0.501 E0.03715
G1 X-2.424 Y1.856 E0.017
G1 X-0.04 Y2.098 E0.03005
G1 X1.65 Y1.77 E0.02159
G1 X5.043 Y0.878 E0.044
G1 X7.364 Y-1.091 E0.03817
G1 X7.511 Y-2.747 E0.02085
G1 X7.141 Y-4.906 E0.02747
G1 X4.636 Y-9.438 E0.06494
G1 X3.066 Y-11.481 E0.03231
G1 X2.197 Y-12.049 E0.01302
G0 F7200 X2.091 Y-11.753
G0 X1.585 Y1.47
G0 X1.739 Y2.16
;TYPE:WALL-OUTER
G1 F1800 X5.233 Y1.242 E0.0453
G1 X7.748 Y-.892 E0.04136
G1 X7.914 Y-2.763 E0.02356
G1 X7.524 Y-5.04 E0.02897
G1 X4.972 Y-9.658 E0.06617
G1 X3.342 Y-11.779 E0.03355
G1 X2.337 Y-12.435 E0.01505
G1 X1.881 Y-12.49 E0.00576
G1 X1.233 Y-12.383 E0.00824
G1 X-.604 Y-10.914 E0.0295
G1 X-2.161 Y-2.441 E0.10803
G1 X-2.859 Y0.458 E0.03739
G1 X-2.816 Y2.218 E0.02208
G1 X-0.022 Y2.502 E0.03522
G1 X1.739 Y2.16 E0.0225
G0 F7200 X1.932 Y2.11
G0 X1.753 Y1.426
G0 X3.19 Y-.903
;TYPE:SKIN
G1 F1800 X3.319 Y-.894 E0.00162
G1 X5.287 Y-1.41 E0.02551
G1 X5.646 Y-1.692 E0.00572
G1 X5.692 Y-1.802 E0.0015
G1 X5.63 Y-2.284 E0.00609
G1 X4.236 Y-4.809 E0.03617
G1 X4.14 Y-4.896 E0.00162
G1 X4.033 Y-4.911 E0.00135
G1 X3.886 Y-4.869 E0.00192
G1 X3.803 Y-4.744 E0.00188
G1 X3.071 Y-1.128 E0.04627
G1 X3.106 Y-.969 E0.00204
G1 X3.19 Y-.903 E0.00134
G0 F7200 X1.559 Y1.396
G1 F1800 X-0.054 Y1.71 E0.02061
G1 X-2.052 Y1.51 E0.02518
G1 X-2.075 Y0.542 E0.01214
G1 X-1.393 Y-2.293 E0.03657
G1 X0.112 Y-10.482 E0.10441
G1 X1.561 Y-11.647 E0.02332
G1 X1.892 Y-11.701 E0.00421
G1 X2.06 Y-11.679 E0.00212
G1 X2.806 Y-11.195 E0.01115
G1 X4.32 Y-9.222 E0.03119
G1 X6.776 Y-4.776 E0.0637
G1 X7.126 Y-2.735 E0.02597
G1 X6.996 Y-1.276 E0.01837
G1 X4.865 Y0.53 E0.03503
G1 X1.559 Y1.396 E0.04286
G0 F7200 X-1.865 Y0.964
G1 F1800 X-1.46 Y1.368 E0.00717
G0 F7200 X-.832 Y1.431
G1 F1800 X-1.841 Y0.422 E0.01789
G0 F7200 X-1.731 Y-0.034
G1 F1800 X-.203 Y1.494 E0.0271
G0 F7200 X0.305 Y1.436
G1 F1800 X-1.621 Y-.49 E0.03416
G0 F7200 X-1.512 Y-.946
G1 F1800 X0.779 Y1.344 E0.04062
G0 F7200 X1.252 Y1.252
G1 F1800 X-1.401 Y-1.401 E0.04705
G0 F7200 X-1.292 Y-1.858
G1 F1800 X1.715 Y1.149 E0.05333
G0 F7200 X2.162 Y1.031
G1 F1800 X-1.185 Y-2.316 E0.05936
G0 F7200 X-1.097 Y-2.794
G1 F1800 X2.611 Y0.914 E0.06576
G0 F7200 X3.059 Y0.796
G1 F1800 X-1.01 Y-3.272 E0.07215
G0 F7200 X-.922 Y-3.75
G1 F1800 X3.507 Y0.679 E0.07855
G0 F7200 X3.956 Y0.561
G1 F1800 X-.834 Y-4.228 E0.08494
G0 F7200 X-.746 Y-4.706
G1 F1800 X2.877 Y-1.083 E0.06425
G0 F7200 X2.96 Y-1.566
G1 F1800 X-.658 Y-5.184 E0.06416
G0 F7200 X-.571 Y-5.662
G1 F1800 X3.055 Y-2.036 E0.06431
G0 F7200 X3.149 Y-2.507
G1 F1800 X-.483 Y-6.14 E0.06442
G0 F7200 X-.395 Y-6.618
G1 F1800 X3.244 Y-2.978 E0.06455
G0 F7200 X3.339 Y-3.449
G1 F1800 X-.308 Y-7.096 E0.06468
G0 F7200 X-.22 Y-7.574
G1 F1800 X3.434 Y-3.92 E0.0648
G0 F7200 X3.528 Y-4.391
G1 F1800 X-.132 Y-8.051 E0.06491
G0 F7200 X-0.044 Y-8.529
G1 F1800 X3.623 Y-4.862 E0.06503
G0 F7200 X3.958 Y-5.093
G1 F1800 X0.044 Y-9.007 E0.06941
G0 F7200 X0.132 Y-9.485
G1 F1800 X6.922 Y-2.695 E0.12042
G0 F7200 X6.875 Y-2.176
G1 F1800 X4.738 Y-4.313 E0.0379
G1 X4.668 Y-4.383
G0 F7200 X5.435 Y-3.05
G1 F1800 X6.829 Y-1.656 E0.02472
G0 F7200 X6.663 Y-1.257
G1 F1800 X5.843 Y-2.077 E0.01454
G0 F7200 X5.795 Y-1.559
G1 F1800 X6.357 Y-.997 E0.00997
G0 F7200 X6.051 Y-.738
G1 F1800 X5.492 Y-1.296 E0.0099
G0 F7200 X5.076 Y-1.147
G1 F1800 X5.745 Y-.478 E0.01186
G0 F7200 X5.438 Y-.218
G1 F1800 X4.627 Y-1.03 E0.01439
G0 F7200 X4.179 Y-.912
G1 F1800 X5.132 Y0.041 E0.0169
G0 F7200 X4.826 Y0.301
G1 F1800 X3.731 Y-.795 E0.01943
G0 F7200 X3.251 Y-.709
G1 F1800 X4.403 Y0.443 E0.02043
G1 X4.473 Y0.513
G0 F7200 X6.815 Y-3.367
G1 F1800 X0.219 Y-9.963 E0.11698
G0 F7200 X0.34 Y-10.408
G1 F1800 X6.698 Y-4.05 E0.11276
G0 F7200 X6.561 Y-4.752
G1 F1800 X0.653 Y-10.66 E0.10478
G0 F7200 X0.967 Y-10.912
G1 F1800 X5.863 Y-6.017 E0.08682
G1 X5.933 Y-5.947
G0 F7200 X5.164 Y-7.281
G1 F1800 X1.281 Y-11.165 E0.06887
G0 F7200 X1.594 Y-11.417
G1 F1800 X4.465 Y-8.545 E0.05093
G1 X4.535 Y-8.475
G0 F7200 X3.121 Y-10.455
G1 F1800 X2.276 Y-11.3 E0.01499
G1 X2.206 Y-11.37
G0 F7200 X2.181 Y-11.336
;MESH:NONMESH
G0 F600 X2.181 Y-11.336 Z0.9
G0 F7200 X2.494 Y-12.596
;TIME_ELAPSED:23.966274
;LAYER:3
;TYPE:WALL-INNER
;MESH:C:\Users\jacob\OneDrive\Documents\Research\Core-R-Theta\EasyS4\output_models\deformed\dino_1773792543.8137462_deformed_tet.stl
G1 F3600 X1.854 Y-12.67 E0.00808
G1 X0.913 Y-12.517 E0.01196
G1 X-1.91 Y-10.255 E0.04536
G1 X-2.976 Y-4.467 E0.0738
G1 X-4.066 Y0.053 E0.05831
G1 X-4.008 Y2.544 E0.03125
G1 X0.121 Y2.962 E0.05204
G1 X2.862 Y2.434 E0.03501
G1 X4.907 Y1.894 E0.02652
G1 X8.1 Y-.811 E0.05248
G1 X8.307 Y-3.127 E0.02916
G1 X7.801 Y-6.07 E0.03745
G1 X6.608 Y-8.226 E0.0309
G1 X4.014 Y-11.601 E0.05338
G1 X2.494 Y-12.596 E0.02278
G0 F7200 X2.389 Y-12.298
G0 X2.798 Y2.134
G0 X2.951 Y2.824
;TYPE:WALL-OUTER
G1 F1800 X5.097 Y2.258 E0.02783
G1 X8.484 Y-.612 E0.05567
G1 X8.71 Y-3.143 E0.03187
G1 X8.184 Y-6.204 E0.03895
G1 X6.944 Y-8.446 E0.03213
G1 X4.29 Y-11.899 E0.05461
G1 X2.634 Y-12.982 E0.02481
G1 X1.845 Y-13.074 E0.00996
G1 X0.745 Y-12.895 E0.01398
G1 X-2.276 Y-10.474 E0.04855
G1 X-3.365 Y-4.561 E0.0754
G1 X-4.467 Y0.01 E0.05896
G1 X-4.4 Y2.906 E0.03633
G1 X0.139 Y3.366 E0.05721
G1 X2.951 Y2.824 E0.03591
G0 F7200 X3.144 Y2.773
G0 X2.965 Y2.09
G0 X-.65 Y1.163
;TYPE:SKIN
G1 F1800 X-.197 Y1.208 E0.00571
G1 X0.443 Y1.085 E0.00817
G1 X5.164 Y-.15 E0.0612
G1 X6.57 Y-1.348 E0.02316
G1 X6.611 Y-1.428 E0.00113
G1 X6.694 Y-2.36 E0.01173
G1 X6.46 Y-3.739 E0.01754
G1 X2.635 Y-10.659 E0.09915
G1 X2.065 Y-11.395 E0.01167
G1 X1.952 Y-11.447 E0.00156
G1 X1.862 Y-11.438 E0.00113
G1 X1.489 Y-11.152 E0.00589
G1 X1.443 Y-11.057 E0.00132
G1 X-.56 Y-.162 E0.13892
G1 X-.828 Y0.957 E0.01443
G1 X-.794 Y1.077 E0.00156
G1 X-.65 Y1.163 E0.0021
G0 F7200 X7.306 Y-1.216
G1 F1290.3 X6.999 Y-1.059 E0.00603
G1 X7.037 Y-1.318 E0.00458
G1 F1682.2 X6.997 Y-1.409 E0.00133
G1 F1914.9 X7.048 Y-1.962 E0.00655
G1 X7.426 Y-1.976 E0.00446
G1 X7.371 Y-1.374 E0.00713
G1 F1682.2 X7.306 Y-1.216 E0.00229
G0 F7200 X6.999 Y-1.059
G1 F1152 X6.914 Y-.97 E0.00241
G1 F1176.5 X5.619 Y0.124 E0.03253
G0 F7200 X2.807 Y2.056
G1 F1800 X0.106 Y2.574 E0.03449
G1 X-3.636 Y2.198 E0.04716
G1 X-3.683 Y0.094 E0.02639
G1 X-2.601 Y-4.393 E0.05788
G1 X-1.56 Y-10.046 E0.07208
G1 X1.073 Y-12.158 E0.04233
G1 X1.857 Y-12.285 E0.00996
G1 X2.357 Y-12.226 E0.00631
G1 X3.754 Y-11.315 E0.02091
G1 X6.292 Y-8.01 E0.05226
G1 X7.436 Y-5.94 E0.02966
G1 X7.922 Y-3.115 E0.03595
G1 X7.731 Y-1 E0.02663
G1 X4.728 Y1.546 E0.04937
G1 X2.807 Y2.056 E0.02492
G0 F7200 X7.249 Y-2.158
G1 F1800 X7.673 Y-2.582 E0.00752
G0 F7200 X7.707 Y-3.181
G1 F1800 X6.896 Y-2.371 E0.01437
G0 F7200 X6.814 Y-2.855
G1 F1800 X7.624 Y-3.664 E0.01436
G0 F7200 X7.541 Y-4.147
G1 F1800 X6.732 Y-3.338 E0.01435
G0 F7200 X6.646 Y-3.818
G1 F1800 X7.458 Y-4.629 E0.01439
G0 F7200 X7.375 Y-5.112
G1 F1800 X6.445 Y-4.182 E0.01649
G0 F7200 X6.243 Y-4.546
G1 F1800 X7.292 Y-5.595 E0.0186
G0 F7200 X7.159 Y-6.027
G1 F1800 X6.042 Y-4.911 E0.0198
G0 F7200 X5.841 Y-5.275
G1 F1800 X6.957 Y-6.392 E0.0198
G0 F7200 X6.756 Y-6.756
G1 F1800 X5.639 Y-5.639 E0.01981
G0 F7200 X5.438 Y-6.004
G1 F1800 X6.554 Y-7.12 E0.01979
G0 F7200 X6.353 Y-7.484
G1 F1800 X5.237 Y-6.368 E0.01979
G0 F7200 X5.035 Y-6.732
G1 F1800 X6.151 Y-7.848 E0.01979
G0 F7200 X5.912 Y-8.175
G1 F1800 X4.834 Y-7.097 E0.01912
G0 F7200 X4.633 Y-7.461
G1 F1800 X5.666 Y-8.494 E0.01832
G0 F7200 X5.421 Y-8.815
G1 F1800 X4.431 Y-7.826 E0.01755
G0 F7200 X4.23 Y-8.19
G1 F1800 X5.175 Y-9.134 E0.01675
G0 F7200 X4.929 Y-9.455
G1 F1800 X4.029 Y-8.555 E0.01596
G0 F7200 X3.828 Y-8.919
G1 F1800 X4.683 Y-9.774 E0.01516
G0 F7200 X4.438 Y-10.095
G1 F1800 X3.626 Y-9.283 E0.0144
G0 F7200 X3.425 Y-9.648
G1 F1800 X4.192 Y-10.414 E0.01359
G0 F7200 X3.946 Y-10.735
G1 F1800 X3.224 Y-10.012 E0.01281
G0 F7200 X3.022 Y-10.376
G1 F1800 X3.7 Y-11.054 E0.01202
G0 F7200 X3.393 Y-11.312
G1 F1800 X2.82 Y-10.74 E0.01015
G0 F7200 X2.574 Y-11.059
G1 F1800 X3.05 Y-11.536 E0.00845
G0 F7200 X2.708 Y-11.759
G1 F1800 X2.328 Y-11.379 E0.00674
G0 F7200 X2.012 Y-11.628
G1 F1800 X2.366 Y-11.983 E0.00629
G0 F7200 X1.897 Y-12.08
G1 F1800 X-1.631 Y-8.551 E0.06258
G0 F7200 X-1.504 Y-9.244
G1 F1800 X1.233 Y-11.981 E0.04854
G1 X1.303 Y-12.051
G0 F7200 X1.195 Y-10.812
G1 F1800 X-1.759 Y-7.857 E0.0524
G0 F7200 X-1.887 Y-7.164
G1 F1800 X1.068 Y-10.119 E0.05241
G0 F7200 X0.94 Y-9.425
G1 F1800 X-2.015 Y-6.471 E0.0524
G0 F7200 X-2.142 Y-5.778
G1 F1800 X0.812 Y-8.732 E0.05239
G0 F7200 X0.685 Y-8.039
G1 F1800 X-2.27 Y-5.084 E0.05241
G0 F7200 X-2.397 Y-4.391
G1 F1800 X0.557 Y-7.345 E0.05239
G0 F7200 X0.43 Y-6.652
G1 F1800 X-2.575 Y-3.648 E0.05328
G0 F7200 X-2.754 Y-2.903
G1 F1800 X0.303 Y-5.959 E0.05421
G0 F7200 X0.175 Y-5.266
G1 F1800 X-2.934 Y-2.157 E0.05514
G0 F7200 X-3.113 Y-1.412
G1 F1800 X0.047 Y-4.573 E0.05605
G0 F7200 X-0.08 Y-3.88
G1 F1800 X-3.293 Y-.667 E0.05698
G0 F7200 X-3.473 Y0.078
G1 F1800 X-.208 Y-3.186 E0.0579
G0 F7200 X-.335 Y-2.493
G1 F1800 X-3.47 Y0.641 E0.05559
G0 F7200 X-3.458 Y1.195
G1 F1800 X-.462 Y-1.8 E0.05312
G0 F7200 X-.59 Y-1.107
G1 F1800 X-3.446 Y1.749 E0.05065
G0 F7200 X-3.176 Y2.044
G1 F1800 X-.718 Y-.414 E0.04359
G0 F7200 X-.883 Y0.317
G1 F1800 X-2.662 Y2.096 E0.03155
G0 F7200 X-2.147 Y2.147
G1 F1800 X-1.011 Y1.011 E0.02015
G0 F7200 X-.75 Y1.315
G1 F1800 X-1.633 Y2.199 E0.01567
G0 F7200 X-1.119 Y2.251
G1 F1800 X-.268 Y1.399 E0.0151
G0 F7200 X0.401 Y1.296
G1 F1800 X-.605 Y2.302 E0.01784
G0 F7200 X-0.091 Y2.354
G1 F1800 X1.159 Y1.104 E0.02217
G0 F7200 X1.925 Y0.904
G1 F1800 X0.541 Y2.287 E0.02454
G0 F7200 X1.241 Y2.153
G1 F1800 X2.691 Y0.704 E0.02571
G0 F7200 X3.457 Y0.503
G1 F1800 X1.941 Y2.019 E0.02689
G0 F7200 X2.641 Y1.884
G1 F1800 X4.223 Y0.303 E0.02805
G0 F7200 X4.989 Y0.103
G1 F1800 X3.399 Y1.692 E0.02819
G0 F7200 X4.17 Y1.487
G1 F1800 X5.364 Y0.293 E0.02118
G1 X5.434 Y0.223
;MESH:NONMESH
G0 F600 X5.434 Y0.223 Z1.1
G0 F7200 X-.378 Y-.378
;TIME_ELAPSED:35.262898
;LAYER:4
;TYPE:FILL
;MESH:C:\Users\jacob\OneDrive\Documents\Research\Core-R-Theta\EasyS4\output_models\deformed\dino_1773792543.8137462_deformed_tet.stl
G1 F3600 X0.837 Y0.837 E0.0431
G0 F7200 X-.6 Y0.6
G1 F3600 X5.39 Y-5.39 E0.21246
G0 F7200 X4.731 Y-6.582
G1 F3600 X1.378 Y-9.936 E0.11895
G0 F7200 X3.377 Y-9.034
G1 F3600 X0.727 Y-6.384 E0.09399
G0 F7200 X0.501 Y-5.156
G1 F3600 X5.249 Y-.408 E0.16841
G1 X5.193 Y-.464
G1 X5.737 Y0.08 E0.00965
G0 F7200 X4.904 Y0.752
G1 F3600 X7.248 Y-1.591 E0.04156
G1 X7.318 Y-1.661
G0 F7200 X7.097 Y-4.217
G1 F3600 X4.525 Y-6.788 E0.0456
G1 X4.455 Y-6.858
G0 F7200 X5.331 Y-5.331
G1 F3600 X6.228 Y-6.228 E0.01591
G1 X6.298 Y-6.298
G0 F7200 X3.318 Y-8.975
G1 F3600 X4.153 Y-9.81 E0.01481
G1 X4.223 Y-9.88
G0 F7200 X1.448 Y-9.866
G1 F3600 X0.349 Y-10.964 E0.01948
G1 X0.279 Y-11.034
G0 F7200 X0.826 Y-6.483
G1 F3600 X-1.226 Y-4.431 E0.03639
G1 X-1.296 Y-4.361
G0 F7200 X0.57 Y-5.087
G1 F3600 X-.846 Y-6.503 E0.02511
G1 X-.916 Y-6.573
G0 F7200 X-1.75 Y-1.75
G1 F3600 X-.308 Y-.308 E0.02557
G1 X-.238 Y-.238
G0 F7200 X-.491 Y0.491
G1 F3600 X-1.764 Y1.764 E0.02258
G1 X-1.834 Y1.834
G0 F7200 X0.772 Y0.772
G1 F3600 X1.615 Y1.615 E0.01495
G1 X1.685 Y1.685
G0 F7200 X2.682 Y-12.847
G0 X2.785 Y-13.14
;TYPE:WALL-INNER
G1 F3600 X1.821 Y-13.254 E0.01217
G1 X0.428 Y-13.028 E0.0177
G1 X-3.586 Y-9.819 E0.06445
G1 X-4.173 Y-6.623 E0.04075
G1 X-5.674 Y-.399 E0.08029
G1 X-5.589 Y3.234 E0.04557
