;FLAVOR:Marlin
;TIME:6666
;Filament used: 0m
;Layer height: 0.2
;MINX:2.14748e+06
;MINY:2.14748e+06
;MINZ:2.14748e+06
;MAXX:-2.14748e+06
;MAXY:-2.14748e+06
;MAXZ:-2.14748e+06
;TARGET_MACHINE.NAME:Unknown

;Generated with Cura_SteamEngine 5.11.0
M104 S210
M105
M109 S210
G28 ;Home
G1 Z15.0 F6000 ;Move the platform down 15mm
G92 E0
G1 F200 E3
G92 E0
M82 ;absolute extrusion mode
G92 E0
G92 E0
G1 F1500 E-6.5
;LAYER_COUNT:281
;LAYER:0
;note -- min layer time used
M106 S255
;MESH:C:\Users\jacob\OneDrive\Documents\Research\Core-R-Theta\EasyS4\output_models\deformed\dino_deformed_tet.stl
G0 F3600 X5.347 Y-1.406 Z0.3
;TYPE:WALL-INNER
G1 F1500 E0
G1 F600 X5.703 Y-1.71 E0.00881
G1 X5.719 Y-1.886 E0.01213
G1 X5.649 Y-2.29 E0.01984
G1 X3.922 Y-5.426 E0.08719
G1 X2.98 Y-.788 E0.17621
G1 X5.347 Y-1.406 E0.22223
G0 F3600 X5.537 Y-1.042
;TYPE:WALL-OUTER
G1 F600 X6.087 Y-1.512 E0.23584
G1 X6.122 Y-1.903 E0.24322
G1 X6.032 Y-2.424 E0.25317
G1 X3.747 Y-6.573 E0.34226
G1 X2.46 Y-.239 E0.46385
G1 X5.537 Y-1.042 E0.52366
G0 F3600 X5.689 Y-1.172
G0 X5.316 Y-1.882
;TYPE:SKIN
G1 F600 X5.168 Y-1.754 E0.52734
G1 X3.473 Y-1.311 E0.5603
G1 X4.087 Y-4.336 E0.61836
G1 X5.282 Y-2.165 E0.66498
G1 X5.316 Y-1.882 E0.67034
G0 F3600 X4 Y-1.657
G1 F600 X3.789 Y-1.867 E0.67594
G0 F3600 X3.885 Y-2.338
G1 F600 X4.449 Y-1.773 E0.69096
G0 F3600 X4.897 Y-1.891
G1 F600 X3.98 Y-2.808 E0.71535
G0 F3600 X4.076 Y-3.278
G1 F600 X4.888 Y-2.466 E0.73695
G1 X4.958 Y-2.396
G0 F3600 X4.912 Y-2.372
G1 F1500 E-5.76305
;MESH:NONMESH
G0 F600 X4.912 Y-2.372 Z0.5
G0 F3600 X2.747 Y-.54
G0 X1.684 Y-.754
G0 X0.478 Y1.099
;TIME_ELAPSED:6.751077
;LAYER:1
;TYPE:WALL-INNER
;MESH:C:\Users\jacob\OneDrive\Documents\Research\Core-R-Theta\EasyS4\output_models\deformed\dino_deformed_tet.stl
G1 F1500 E0.73695
G1 F2700 X5.175 Y-.138 E0.79786
G1 X6.624 Y-1.367 E0.82169
G1 X6.715 Y-2.364 E0.83424
G1 X6.477 Y-3.746 E0.85183
G1 X2.664 Y-10.65 E0.95073
G1 X2.114 Y-11.365 E0.96205
G1 X1.899 Y-11.504 E0.96526
G1 X1.434 Y-11.134 E0.97271
G1 X-.561 Y-.255 E1.11141
G1 X-.849 Y0.952 E1.12697
G1 X-.844 Y1.164 E1.12963
G1 X-.2 Y1.23 E1.13775
G1 X0.478 Y1.099 E1.14641
G0 F5400 X0.567 Y1.489
;TYPE:WALL-OUTER
G1 F1800 X5.365 Y0.226 E1.20863
G1 X7.008 Y-1.168 E1.23565
G1 X7.118 Y-2.38 E1.25091
G1 X6.86 Y-3.88 E1.27
G1 X3 Y-10.87 E1.37013
G1 X2.39 Y-11.663 E1.38268
G1 X2.044 Y-11.887 E1.38785
G1 X1.717 Y-11.871 E1.39195
G1 X1.068 Y-11.354 E1.40236
G1 X-.957 Y-.317 E1.54308
G1 X-1.251 Y0.91 E1.5589
G1 X-1.236 Y1.526 E1.56663
G1 X-.182 Y1.634 E1.57991
G1 X0.567 Y1.489 E1.58948
G0 F5400 X0.76 Y1.439
G0 X0.58 Y0.751
G0 X-.189 Y-.178
;TYPE:SKIN
G1 F1800 X1.784 Y-10.923 E1.72648
G1 X1.898 Y-11.016 E1.72832
G1 X2.348 Y-10.433 E1.73756
G1 X6.112 Y-3.616 E1.83521
G1 X6.33 Y-2.352 E1.8513
G1 X6.256 Y-1.556 E1.86132
G1 X4.997 Y-.486 E1.88204
G1 X0.423 Y0.721 E1.94137
G1 X-.214 Y0.842 E1.9495
G1 X-.424 Y0.822 E1.95214
G1 X-.189 Y-.178 E1.96502
G0 F5400 X6.11 Y-2.15
G1 F1800 X4.529 Y-.569 E1.99306
G0 F5400 X3.76 Y-.366
G1 F1800 X6.071 Y-2.676 E2.03404
G0 F5400 X5.988 Y-3.159
G1 F1800 X2.992 Y-.164 E2.08716
G0 F5400 X2.224 Y0.039
G1 F1800 X5.882 Y-3.619 E2.15204
G0 F5400 X5.68 Y-3.983
G1 F1800 X1.455 Y0.242 E2.22697
G0 F5400 X0.687 Y0.445
G1 F1800 X5.479 Y-4.348 E2.31196
G0 F5400 X5.278 Y-4.712
G1 F1800 X-0.04 Y0.605 E2.40626
G0 F5400 X-0.033 Y0.033
G1 F1800 X5.076 Y-5.076 E2.49687
G0 F5400 X4.876 Y-5.441
G1 F1800 X0.105 Y-.671 E2.58148
G0 F5400 X0.233 Y-1.364
G1 F1800 X4.674 Y-5.805 E2.66024
G0 F5400 X4.473 Y-6.17
G1 F1800 X0.36 Y-2.057 E2.73318
G0 F5400 X0.487 Y-2.75
G1 F1800 X4.272 Y-6.534 E2.8003
G0 F5400 X4.07 Y-6.899
G1 F1800 X0.614 Y-3.443 E2.86159
G0 F5400 X0.741 Y-4.135
G1 F1800 X3.869 Y-7.263 E2.91706
G0 F5400 X3.668 Y-7.628
G1 F1800 X0.868 Y-4.828 E2.96672
G0 F5400 X0.996 Y-5.521
G1 F1800 X3.467 Y-7.992 E3.01054
G0 F5400 X3.265 Y-8.357
G1 F1800 X1.123 Y-6.214 E3.04854
G0 F5400 X1.25 Y-6.907
G1 F1800 X3.064 Y-8.721 E3.08071
G0 F5400 X2.863 Y-9.086
G1 F1800 X1.377 Y-7.6 E3.10706
G0 F5400 X1.504 Y-8.292
G1 F1800 X2.662 Y-9.45 E3.1276
G0 F5400 X2.461 Y-9.815
G1 F1800 X1.631 Y-8.985 E3.14232
G0 F5400 X1.759 Y-9.678
G1 F1800 X2.259 Y-10.179 E3.1512
G0 F5400 X2.032 Y-10.517
G1 F1800 X1.886 Y-10.371 E3.15379
G0 F5400 X1.914 Y-10.365
;MESH:NONMESH
G0 F600 X1.914 Y-10.365 Z0.7
G0 F5400 X3.435 Y-2.222
;TIME_ELAPSED:13.903006
;LAYER:2
;TYPE:FILL
;MESH:C:\Users\jacob\OneDrive\Documents\Research\Core-R-Theta\EasyS4\output_models\deformed\dino_deformed_tet.stl
G1 F3600 X4.346 Y-1.311 E3.16994
G1 X4.416 Y-1.241
G0 F7200 X3.746 Y-3.746
G1 F3600 X4.34 Y-4.34 E3.18048
G1 X4.41 Y-4.41
G0 F7200 X2.093 Y-11.755
G0 X2.197 Y-12.049
;TYPE:WALL-INNER
G1 F3600 X1.89 Y-12.086 E3.18435
G1 X1.401 Y-12.005 E3.19057
G1 X-.238 Y-10.695 E3.21688
G1 X-1.765 Y-2.379 E3.32291
G1 X-2.458 Y0.501 E3.36006
G1 X-2.424 Y1.856 E3.37706
G1 X-0.04 Y2.098 E3.40711
G1 X1.65 Y1.77 E3.42869
G1 X5.043 Y0.878 E3.47269
G1 X7.364 Y-1.091 E3.51086
G1 X7.511 Y-2.747 E3.53171
G1 X7.141 Y-4.906 E3.55918
G1 X4.636 Y-9.438 E3.62411
G1 X3.066 Y-11.481 E3.65642
G1 X2.197 Y-12.049 E3.66944
G0 F7200 X2.091 Y-11.753
G0 X1.585 Y1.47
G0 X1.739 Y2.16
;TYPE:WALL-OUTER
G1 F1800 X5.233 Y1.242 E3.71475
G1 X7.748 Y-.892 E3.75611
G1 X7.914 Y-2.763 E3.77966
G1 X7.524 Y-5.04 E3.80863
G1 X4.972 Y-9.658 E3.8748
G1 X3.342 Y-11.779 E3.90835
G1 X2.337 Y-12.435 E3.9234
G1 X1.881 Y-12.49 E3.92916
G1 X1.233 Y-12.383 E3.93739
G1 X-.604 Y-10.914 E3.96689
G1 X-2.161 Y-2.441 E4.07492
G1 X-2.859 Y0.458 E4.11232
G1 X-2.816 Y2.218 E4.13439
G1 X-0.022 Y2.502 E4.16961
G1 X1.739 Y2.16 E4.19211
G0 F7200 X1.932 Y2.11
G0 X1.753 Y1.426
G0 X3.19 Y-.903
;TYPE:SKIN
G1 F1800 X3.319 Y-.894 E4.19373
G1 X5.287 Y-1.41 E4.21924
G1 X5.646 Y-1.692 E4.22497
G1 X5.692 Y-1.802 E4.22646
G1 X5.63 Y-2.284 E4.23256
G1 X4.236 Y-4.809 E4.26873
G1 X4.14 Y-4.896 E4.27035
G1 X4.033 Y-4.911 E4.27171
G1 X3.886 Y-4.869 E4.27362
G1 X3.803 Y-4.744 E4.27551
G1 X3.071 Y-1.128 E4.32177
G1 X3.106 Y-.969 E4.32381
G1 X3.19 Y-.903 E4.32515
G0 F7200 X1.559 Y1.396
G1 F1800 X-0.054 Y1.71 E4.34576
G1 X-2.052 Y1.51 E4.37094
G1 X-2.075 Y0.542 E4.38308
G1 X-1.393 Y-2.293 E4.41965
G1 X0.112 Y-10.482 E4.52406
G1 X1.561 Y-11.647 E4.54738
G1 X1.892 Y-11.701 E4.55158
G1 X2.06 Y-11.679 E4.55371
G1 X2.806 Y-11.195 E4.56486
G1 X4.32 Y-9.222 E4.59605
G1 X6.776 Y-4.776 E4.65974
G1 X7.126 Y-2.735 E4.68571
G1 X6.996 Y-1.276 E4.70408
G1 X4.865 Y0.53 E4.73911
G1 X1.559 Y1.396 E4.78197
G0 F7200 X-1.865 Y0.964
G1 F1800 X-1.46 Y1.368 E4.78914
G0 F7200 X-.832 Y1.431
G1 F1800 X-1.841 Y0.422 E4.80704
G0 F7200 X-1.731 Y-0.034
G1 F1800 X-.203 Y1.494 E4.83413
G0 F7200 X0.305 Y1.436
G1 F1800 X-1.621 Y-.49 E4.86829
G0 F7200 X-1.512 Y-.946
G1 F1800 X0.779 Y1.344 E4.90891
G0 F7200 X1.252 Y1.252
G1 F1800 X-1.401 Y-1.401 E4.95596
G0 F7200 X-1.292 Y-1.858
G1 F1800 X1.715 Y1.149 E5.00929
G0 F7200 X2.162 Y1.031
G1 F1800 X-1.185 Y-2.316 E5.06865
G0 F7200 X-1.097 Y-2.794
G1 F1800 X2.611 Y0.914 E5.13441
G0 F7200 X3.059 Y0.796
G1 F1800 X-1.01 Y-3.272 E5.20656
G0 F7200 X-.922 Y-3.75
G1 F1800 X3.507 Y0.679 E5.28511
G0 F7200 X3.956 Y0.561
G1 F1800 X-.834 Y-4.228 E5.37005
G0 F7200 X-.746 Y-4.706
G1 F1800 X2.877 Y-1.083 E5.43431
G0 F7200 X2.96 Y-1.566
G1 F1800 X-.658 Y-5.184 E5.49847
G0 F7200 X-.571 Y-5.662
G1 F1800 X3.055 Y-2.036 E5.56278
G0 F7200 X3.149 Y-2.507
G1 F1800 X-.483 Y-6.14 E5.6272
G0 F7200 X-.395 Y-6.618
G1 F1800 X3.244 Y-2.978 E5.69174
G0 F7200 X3.339 Y-3.449
G1 F1800 X-.308 Y-7.096 E5.75642
G0 F7200 X-.22 Y-7.574
G1 F1800 X3.434 Y-3.92 E5.82122
G0 F7200 X3.528 Y-4.391
G1 F1800 X-.132 Y-8.051 E5.88613
G0 F7200 X-0.044 Y-8.529
G1 F1800 X3.623 Y-4.862 E5.95117
G0 F7200 X3.958 Y-5.093
G1 F1800 X0.044 Y-9.007 E6.02058
G0 F7200 X0.132 Y-9.485
G1 F1800 X6.922 Y-2.695 E6.141
G0 F7200 X6.875 Y-2.176
G1 F1800 X4.738 Y-4.313 E6.1789
G1 X4.668 Y-4.383
G0 F7200 X5.435 Y-3.05
G1 F1800 X6.829 Y-1.656 E6.20362
G0 F7200 X6.663 Y-1.257
G1 F1800 X5.843 Y-2.077 E6.21816
G0 F7200 X5.795 Y-1.559
G1 F1800 X6.357 Y-.997 E6.22813
G0 F7200 X6.051 Y-.738
G1 F1800 X5.492 Y-1.296 E6.23804
G0 F7200 X5.076 Y-1.147
G1 F1800 X5.745 Y-.478 E6.2499
G0 F7200 X5.438 Y-.218
G1 F1800 X4.627 Y-1.03 E6.26429
G0 F7200 X4.179 Y-.912
G1 F1800 X5.132 Y0.041 E6.28119
G0 F7200 X4.826 Y0.301
G1 F1800 X3.731 Y-.795 E6.30062
G0 F7200 X3.251 Y-.709
G1 F1800 X4.403 Y0.443 E6.32105
G1 X4.473 Y0.513
G0 F7200 X6.815 Y-3.367
G1 F1800 X0.219 Y-9.963 E6.43803
G0 F7200 X0.34 Y-10.408
G1 F1800 X6.698 Y-4.05 E6.55079
G0 F7200 X6.561 Y-4.752
G1 F1800 X0.653 Y-10.66 E6.65557
G0 F7200 X0.967 Y-10.912
G1 F1800 X5.863 Y-6.017 E6.74239
G1 X5.933 Y-5.947
G0 F7200 X5.164 Y-7.281
G1 F1800 X1.281 Y-11.165 E6.81126
G0 F7200 X1.594 Y-11.417
G1 F1800 X4.465 Y-8.545 E6.86218
G1 X4.535 Y-8.475
G0 F7200 X3.121 Y-10.455
G1 F1800 X2.276 Y-11.3 E6.87717
G1 X2.206 Y-11.37
G0 F7200 X2.181 Y-11.336
;MESH:NONMESH
G0 F600 X2.181 Y-11.336 Z0.9
G0 F7200 X2.494 Y-12.596
;TIME_ELAPSED:24.626274
;LAYER:3
;TYPE:WALL-INNER
;MESH:C:\Users\jacob\OneDrive\Documents\Research\Core-R-Theta\EasyS4\output_models\deformed\dino_deformed_tet.stl
G1 F3600 X1.854 Y-12.67 E6.88525
G1 X0.913 Y-12.517 E6.89721
G1 X-1.91 Y-10.255 E6.94257
G1 X-2.976 Y-4.467 E7.01637
G1 X-4.066 Y0.053 E7.07468
G1 X-4.008 Y2.544 E7.10593
G1 X0.121 Y2.962 E7.15797
G1 X2.862 Y2.434 E7.19298
G1 X4.907 Y1.894 E7.2195
G1 X8.1 Y-.811 E7.27198
G1 X8.307 Y-3.127 E7.30114
G1 X7.801 Y-6.07 E7.33859
G1 X6.608 Y-8.226 E7.36949
G1 X4.014 Y-11.601 E7.42287
G1 X2.494 Y-12.596 E7.44565
G0 F7200 X2.389 Y-12.298
G0 X2.798 Y2.134
G0 X2.951 Y2.824
;TYPE:WALL-OUTER
G1 F1800 X5.097 Y2.258 E7.47348
G1 X8.484 Y-.612 E7.52915
G1 X8.71 Y-3.143 E7.56102
G1 X8.184 Y-6.204 E7.59997
G1 X6.944 Y-8.446 E7.6321
G1 X4.29 Y-11.899 E7.68671
G1 X2.634 Y-12.982 E7.71153
G1 X1.845 Y-13.074 E7.72149
G1 X0.745 Y-12.895 E7.73546
G1 X-2.276 Y-10.474 E7.78401
G1 X-3.365 Y-4.561 E7.85941
G1 X-4.467 Y0.01 E7.91837
G1 X-4.4 Y2.906 E7.9547
G1 X0.139 Y3.366 E8.01191
G1 X2.951 Y2.824 E8.04783
G0 F7200 X3.144 Y2.773
G0 X2.965 Y2.09
G0 X-.65 Y1.163
;TYPE:SKIN
G1 F1800 X-.197 Y1.208 E8.05353
G1 X0.443 Y1.085 E8.06171
G1 X5.164 Y-.15 E8.1229
G1 X6.57 Y-1.348 E8.14607
G1 X6.611 Y-1.428 E8.14719
G1 X6.694 Y-2.36 E8.15893
G1 X6.46 Y-3.739 E8.17647
G1 X2.635 Y-10.659 E8.27562
G1 X2.065 Y-11.395 E8.2873
G1 X1.952 Y-11.447 E8.28886
G1 X1.862 Y-11.438 E8.28999
G1 X1.489 Y-11.152 E8.29588
G1 X1.443 Y-11.057 E8.29721
G1 X-.56 Y-.162 E8.43613
G1 X-.828 Y0.957 E8.45055
G1 X-.794 Y1.077 E8.45212
G1 X-.65 Y1.163 E8.45422
G0 F7200 X7.306 Y-1.216
G1 F1290.3 X6.999 Y-1.059 E8.46025
G1 X7.037 Y-1.318 E8.46483
G1 F1682.2 X6.997 Y-1.409 E8.46617
G1 F1914.9 X7.048 Y-1.962 E8.47271
G1 X7.426 Y-1.976 E8.47717
G1 X7.371 Y-1.374 E8.4843
G1 F1682.2 X7.306 Y-1.216 E8.48659
G0 F7200 X6.999 Y-1.059
G1 F1152 X6.914 Y-.97 E8.489
G1 F1176.5 X5.619 Y0.124 E8.52153
G0 F7200 X2.807 Y2.056
G1 F1800 X0.106 Y2.574 E8.55602
G1 X-3.636 Y2.198 E8.60318
G1 X-3.683 Y0.094 E8.62957
G1 X-2.601 Y-4.393 E8.68745
G1 X-1.56 Y-10.046 E8.75954
G1 X1.073 Y-12.158 E8.80186
G1 X1.857 Y-12.285 E8.81182
G1 X2.357 Y-12.226 E8.81814
G1 X3.754 Y-11.315 E8.83905
G1 X6.292 Y-8.01 E8.89131
G1 X7.436 Y-5.94 E8.92097
G1 X7.922 Y-3.115 E8.95692
G1 X7.731 Y-1 E8.98355
G1 X4.728 Y1.546 E9.03292
G1 X2.807 Y2.056 E9.05784
G0 F7200 X7.249 Y-2.158
G1 F1800 X7.673 Y-2.582 E9.06536
G0 F7200 X7.707 Y-3.181
G1 F1800 X6.896 Y-2.371 E9.07974
G0 F7200 X6.814 Y-2.855
G1 F1800 X7.624 Y-3.664 E9.09409
G0 F7200 X7.541 Y-4.147
G1 F1800 X6.732 Y-3.338 E9.10844
G0 F7200 X6.646 Y-3.818
G1 F1800 X7.458 Y-4.629 E9.12283
G0 F7200 X7.375 Y-5.112
G1 F1800 X6.445 Y-4.182 E9.13932
G0 F7200 X6.243 Y-4.546
G1 F1800 X7.292 Y-5.595 E9.15793
G0 F7200 X7.159 Y-6.027
G1 F1800 X6.042 Y-4.911 E9.17773
G0 F7200 X5.841 Y-5.275
G1 F1800 X6.957 Y-6.392 E9.19753
G0 F7200 X6.756 Y-6.756
G1 F1800 X5.639 Y-5.639 E9.21734
G0 F7200 X5.438 Y-6.004
G1 F1800 X6.554 Y-7.12 E9.23713
G0 F7200 X6.353 Y-7.484
G1 F1800 X5.237 Y-6.368 E9.25692
G0 F7200 X5.035 Y-6.732
G1 F1800 X6.151 Y-7.848 E9.27672
G0 F7200 X5.912 Y-8.175
G1 F1800 X4.834 Y-7.097 E9.29583
G0 F7200 X4.633 Y-7.461
G1 F1800 X5.666 Y-8.494 E9.31415
G0 F7200 X5.421 Y-8.815
G1 F1800 X4.431 Y-7.826 E9.3317
G0 F7200 X4.23 Y-8.19
G1 F1800 X5.175 Y-9.134 E9.34845
G0 F7200 X4.929 Y-9.455
G1 F1800 X4.029 Y-8.555 E9.36441
G0 F7200 X3.828 Y-8.919
G1 F1800 X4.683 Y-9.774 E9.37958
G0 F7200 X4.438 Y-10.095
G1 F1800 X3.626 Y-9.283 E9.39398
G0 F7200 X3.425 Y-9.648
G1 F1800 X4.192 Y-10.414 E9.40757
G0 F7200 X3.946 Y-10.735
G1 F1800 X3.224 Y-10.012 E9.42039
G0 F7200 X3.022 Y-10.376
G1 F1800 X3.7 Y-11.054 E9.43241
G0 F7200 X3.393 Y-11.312
G1 F1800 X2.82 Y-10.74 E9.44256
G0 F7200 X2.574 Y-11.059
G1 F1800 X3.05 Y-11.536 E9.45101
G0 F7200 X2.708 Y-11.759
G1 F1800 X2.328 Y-11.379 E9.45775
G0 F7200 X2.012 Y-11.628
G1 F1800 X2.366 Y-11.983 E9.46404
G0 F7200 X1.897 Y-12.08
G1 F1800 X-1.631 Y-8.551 E9.52662
G0 F7200 X-1.504 Y-9.244
G1 F1800 X1.233 Y-11.981 E9.57516
G1 X1.303 Y-12.051
G0 F7200 X1.195 Y-10.812
G1 F1800 X-1.759 Y-7.857 E9.62755
G0 F7200 X-1.887 Y-7.164
G1 F1800 X1.068 Y-10.119 E9.67996
G0 F7200 X0.94 Y-9.425
G1 F1800 X-2.015 Y-6.471 E9.73236
G0 F7200 X-2.142 Y-5.778
G1 F1800 X0.812 Y-8.732 E9.78475
G0 F7200 X0.685 Y-8.039
G1 F1800 X-2.27 Y-5.084 E9.83715
G0 F7200 X-2.397 Y-4.391
G1 F1800 X0.557 Y-7.345 E9.88954
G0 F7200 X0.43 Y-6.652
G1 F1800 X-2.575 Y-3.648 E9.94282
G0 F7200 X-2.754 Y-2.903
G1 F1800 X0.303 Y-5.959 E9.99703
G0 F7200 X0.175 Y-5.266
G1 F1800 X-2.934 Y-2.157 E10.05217
G0 F7200 X-3.113 Y-1.412
G1 F1800 X0.047 Y-4.573 E10.10822
G0 F7200 X-0.08 Y-3.88
G1 F1800 X-3.293 Y-.667 E10.1652
G0 F7200 X-3.473 Y0.078
G1 F1800 X-.208 Y-3.186 E10.2231
G0 F7200 X-.335 Y-2.493
G1 F1800 X-3.47 Y0.641 E10.27869
G0 F7200 X-3.458 Y1.195
G1 F1800 X-.462 Y-1.8 E10.33181
G0 F7200 X-.59 Y-1.107
G1 F1800 X-3.446 Y1.749 E10.38246
G0 F7200 X-3.176 Y2.044
G1 F1800 X-.718 Y-.414 E10.42605
G0 F7200 X-.883 Y0.317
G1 F1800 X-2.662 Y2.096 E10.4576
G0 F7200 X-2.147 Y2.147
G1 F1800 X-1.011 Y1.011 E10.47775
G0 F7200 X-.75 Y1.315
G1 F1800 X-1.633 Y2.199 E10.49342
G0 F7200 X-1.119 Y2.251
G1 F1800 X-.268 Y1.399 E10.50852
G0 F7200 X0.401 Y1.296
G1 F1800 X-.605 Y2.302 E10.52636
G0 F7200 X-0.091 Y2.354
G1 F1800 X1.159 Y1.104 E10.54853
G0 F7200 X1.925 Y0.904
G1 F1800 X0.541 Y2.287 E10.57306
G0 F7200 X1.241 Y2.153
G1 F1800 X2.691 Y0.704 E10.59877
G0 F7200 X3.457 Y0.503
G1 F1800 X1.941 Y2.019 E10.62566
G0 F7200 X2.641 Y1.884
G1 F1800 X4.223 Y0.303 E10.6537
G0 F7200 X4.989 Y0.103
G1 F1800 X3.399 Y1.692 E10.68189
G0 F7200 X4.17 Y1.487
G1 F1800 X5.364 Y0.293 E10.70307
G1 X5.434 Y0.223
;MESH:NONMESH
G0 F600 X5.434 Y0.223 Z1.1
G0 F7200 X-.378 Y-.378
;TIME_ELAPSED:35.922898
;LAYER:4
;TYPE:FILL
;MESH:C:\Users\jacob\OneDrive\Documents\Research\Core-R-Theta\EasyS4\output_models\deformed\dino_deformed_tet.stl
G1 F3600 X0.837 Y0.837 E10.74617
G0 F7200 X-.6 Y0.6
G1 F3600 X5.39 Y-5.39 E10.95863
G0 F7200 X4.731 Y-6.582
G1 F3600 X1.378 Y-9.936 E11.07757
G0 F7200 X3.377 Y-9.034
G1 F3600 X0.727 Y-6.384 E11.17157
G0 F7200 X0.501 Y-5.156
G1 F3600 X5.249 Y-.408 E11.33998
G1 X5.193 Y-.464
G1 X5.737 Y0.08 E11.34963
G0 F7200 X4.904 Y0.752
G1 F3600 X7.248 Y-1.591 E11.39119
G1 X7.318 Y-1.661
G0 F7200 X7.097 Y-4.217
G1 F3600 X4.525 Y-6.788 E11.43679
G1 X4.455 Y-6.858
G0 F7200 X5.331 Y-5.331
G1 F3600 X6.228 Y-6.228 E11.4527
G1 X6.298 Y-6.298
G0 F7200 X3.318 Y-8.975
G1 F3600 X4.153 Y-9.81 E11.46751
G1 X4.223 Y-9.88
G0 F7200 X1.448 Y-9.866
G1 F3600 X0.349 Y-10.964 E11.48699
G1 X0.279 Y-11.034
G0 F7200 X0.826 Y-6.483
G1 F3600 X-1.226 Y-4.431 E11.52338
G1 X-1.296 Y-4.361
G0 F7200 X0.57 Y-5.087
G1 F3600 X-.846 Y-6.503 E11.54849
G1 X-.916 Y-6.573
G0 F7200 X-1.75 Y-1.75
G1 F3600 X-.308 Y-.308 E11.57407
G1 X-.238 Y-.238
G0 F7200 X-.491 Y0.491
G1 F3600 X-1.764 Y1.764 E11.59664
G1 X-1.834 Y1.834
G0 F7200 X0.772 Y0.772
G1 F3600 X1.615 Y1.615 E11.61159
G1 X1.685 Y1.685
G0 F7200 X2.682 Y-12.847
G0 X2.785 Y-13.14
;TYPE:WALL-INNER
G1 F3600 X1.821 Y-13.254 E11.62377
G1 X0.428 Y-13.028 E11.64147
G1 X-3.586 Y-9.819 E11.70591
G1 X-4.173 Y-6.623 E11.74666
G1 X-5.674 Y-.399 E11.82695
G1 X-5.589 Y3.234 E11.87252
G1 X0.28 Y3.83 E11.9465
G1 X4.07 Y3.098 E11.99491
