;FLAVOR:Marlin
;TIME:6666
;Filament used: 0m
;Layer height: 0.1
;MINX:2.14748e+06
;MINY:2.14748e+06
;MINZ:2.14748e+06
;MAXX:-2.14748e+06
;MAXY:-2.14748e+06
;MAXZ:-2.14748e+06
;TARGET_MACHINE.NAME:Unknown

;Generated with Cura_SteamEngine 5.11.0
M104 S210
M105
M109 S210
G28 ;Home
G1 Z15.0 F6000 ;Move the platform down 15mm
G92 E0
G1 F200 E3
G92 E0
M82 ;absolute extrusion mode
M83 ;relative extrusion mode
G1 F1500 E-1
;LAYER_COUNT:562
;LAYER:0
;note -- min layer time used
M106 S255
G1 F600 Z5.3
;MESH:C:\Users\jacob\OneDrive\Documents\Research\Core-R-Theta\EasyS4\output_models\deformed\dino_1773870177.3431718_deformed_tet.stl
G0 F3600 X0.00 Y0.00 Z5.3
G0 X5.347 Y-1.406
;TYPE:WALL-INNER
G1 F600 Z0.3
G1 F1500 E1
G1 F600 X5.703 Y-1.71 E0.02336
G1 X5.719 Y-1.886 E0.00882
G1 X5.649 Y-2.29 E0.02046
G1 X3.922 Y-5.426 E0.17861
G1 X2.98 Y-.788 E0.23612
G1 X5.347 Y-1.406 E0.12205
G0 F3600 X5.537 Y-1.042
;TYPE:WALL-OUTER
G1 F600 X6.087 Y-1.512 E0.03609
G1 X6.122 Y-1.903 E0.01959
G1 X6.032 Y-2.424 E0.02638
G1 X3.747 Y-6.573 E0.23631
G1 X2.46 Y-.239 E0.32246
G1 X5.537 Y-1.042 E0.15865
G0 F3600 X5.689 Y-1.172
G0 X5.316 Y-1.882
;TYPE:SKIN
G1 F600 X5.168 Y-1.754 E0.00976
G1 X3.473 Y-1.311 E0.0874
G1 X4.087 Y-4.336 E0.154
G1 X5.282 Y-2.165 E0.12364
G1 X5.316 Y-1.882 E0.01422
G0 F3600 X4 Y-1.657
G1 F600 X3.789 Y-1.867 E0.01485
G0 F3600 X3.885 Y-2.338
G1 F600 X4.449 Y-1.773 E0.03983
G0 F3600 X4.897 Y-1.891
G1 F600 X3.98 Y-2.808 E0.0647
G0 F3600 X4.076 Y-3.278
G1 F600 X4.888 Y-2.466 E0.05729
G1 X4.958 Y-2.396
G0 F3600 X4.912 Y-2.372
G1 F1500 E-1
G1 F600 Z5.3
;MESH:NONMESH
G0 F3600 X4.912 Y-2.372 Z5.3
G0 X-.258 Y0.272
;TIME_ELAPSED:7.027808
;LAYER:1
;MESH:C:\Users\jacob\OneDrive\Documents\Research\Core-R-Theta\EasyS4\output_models\deformed\dino_1773870177.3431718_deformed_tet.stl
G0 F5400 X-.258 Y0.272 Z5.4
;TYPE:WALL-INNER
G1 F600 Z0.4
G1 F1500 E1
G1 F2700 X-.429 Y0.994 E0.01234
G1 X-.239 Y1.014 E0.00318
G1 X0.174 Y0.935 E0.00699
G1 X5.211 Y-.394 E0.08663
G1 X6.44 Y-1.435 E0.02678
G1 X6.515 Y-2.272 E0.01398
G1 X6.313 Y-3.455 E0.01996
G1 X2.172 Y-10.952 E0.14243
G1 X1.911 Y-11.293 E0.00714
G1 X1.853 Y-11.246 E0.00124
G1 X-.258 Y0.272 E0.19474
G0 F5400 X0.044 Y0.329
G0 X0.263 Y1.325
;TYPE:WALL-OUTER
G1 F1800 X5.401 Y-0.03 E0.08837
G1 X6.824 Y-1.236 E0.03102
G1 X6.918 Y-2.288 E0.01756
G1 X6.696 Y-3.589 E0.02195
G1 X2.508 Y-11.173 E0.14407
G1 X2.154 Y-11.631 E0.00963
G1 X1.984 Y-11.741 E0.00337
G1 X1.826 Y-11.734 E0.00263
G1 X1.487 Y-11.466 E0.00719
G1 X-.653 Y0.211 E0.19742
G1 X-.847 Y1.022 E0.01387
G1 X-.839 Y1.354 E0.00552
G1 X-.221 Y1.418 E0.01033
G1 X0.263 Y1.325 E0.0082
G0 F5400 X0.456 Y1.275
G0 X0.276 Y0.586
G0 X5.033 Y-.742
;TYPE:SKIN
G1 F1800 X0.074 Y0.566 E0.08529
G1 X2.073 Y-10.339 E0.18437
G1 X5.948 Y-3.324 E0.13328
G1 X6.13 Y-2.26 E0.01795
G1 X6.072 Y-1.624 E0.01062
G1 X5.033 Y-.742 E0.02266
G0 F5400 X5.899 Y-1.94
G1 F1800 X4.864 Y-.904 E0.02435
G0 F5400 X4.096 Y-.702
G1 F1800 X5.887 Y-2.493 E0.04212
G0 F5400 X5.805 Y-2.976
G1 F1800 X3.328 Y-.499 E0.05826
G0 F5400 X2.559 Y-.296
G1 F1800 X5.672 Y-3.41 E0.07322
G0 F5400 X5.471 Y-3.774
G1 F1800 X1.791 Y-0.094 E0.08655
G0 F5400 X1.022 Y0.109
G1 F1800 X5.269 Y-4.138 E0.09988
G0 F5400 X5.069 Y-4.503
G1 F1800 X0.34 Y0.226 E0.11122
G0 F5400 X0.467 Y-.467
G1 F1800 X4.867 Y-4.867 E0.10348
G0 F5400 X4.665 Y-5.231
G1 F1800 X0.594 Y-1.16 E0.09574
G0 F5400 X0.721 Y-1.852
G1 F1800 X4.465 Y-5.596 E0.08805
G0 F5400 X4.263 Y-5.96
G1 F1800 X0.848 Y-2.545 E0.08032
G0 F5400 X0.974 Y-3.237
G1 F1800 X4.062 Y-6.324 E0.07261
G0 F5400 X3.861 Y-6.689
G1 F1800 X1.102 Y-3.93 E0.06489
G0 F5400 X1.229 Y-4.623
G1 F1800 X3.659 Y-7.053 E0.05715
G0 F5400 X3.458 Y-7.418
G1 F1800 X1.356 Y-5.315 E0.04945
G0 F5400 X1.483 Y-6.008
G1 F1800 X3.256 Y-7.782 E0.04171
G0 F5400 X3.055 Y-8.147
G1 F1800 X1.609 Y-6.701 E0.03401
G0 F5400 X1.737 Y-7.394
G1 F1800 X2.854 Y-8.511 E0.02627
G0 F5400 X2.652 Y-8.875
G1 F1800 X1.864 Y-8.086 E0.01854
G0 F5400 X1.991 Y-8.779
G1 F1800 X2.452 Y-9.24 E0.01084
G0 F5400 X2.118 Y-9.472
G1 F1800 X2.25 Y-9.604 E0.0031
G0 F5400 X2.227 Y-9.594
;MESH:NONMESH
G0 F600 X2.227 Y-9.594 Z0.5
G0 F5400 X3.435 Y-2.222
;TIME_ELAPSED:13.520490
;LAYER:2
;TYPE:FILL
;MESH:C:\Users\jacob\OneDrive\Documents\Research\Core-R-Theta\EasyS4\output_models\deformed\dino_1773870177.3431718_deformed_tet.stl
G1 F3600 X4.346 Y-1.311 E0.02143
G1 X4.416 Y-1.241
G0 F7200 X3.746 Y-3.746
G1 F3600 X4.34 Y-4.34 E0.01397
G1 X4.41 Y-4.41
G0 F7200 X0.639 Y0.978
G0 X0.696 Y1.28
;TYPE:WALL-INNER
G1 F3600 X5.144 Y0.114 E0.07647
G1 X6.812 Y-1.299 E0.03635
G1 X6.915 Y-2.459 E0.01937
G1 X6.645 Y-4.034 E0.02657
G1 X3.157 Y-10.346 E0.11993
G1 X2.35 Y-11.393 E0.02198
G1 X1.976 Y-11.637 E0.00743
G1 X1.76 Y-11.621 E0.0036
G1 X1.018 Y-11.027 E0.01581
G1 X-.868 Y-.756 E0.17366
G1 X-1.25 Y0.841 E0.02731
G1 X-1.239 Y1.336 E0.00823
G1 X-.16 Y1.446 E0.01804
G1 X0.696 Y1.28 E0.0145
G0 F7200 X0.831 Y1.66
;TYPE:WALL-OUTER
G1 F1800 X5.333 Y0.478 E0.07741
G1 X7.196 Y-1.1 E0.0406
G1 X7.318 Y-2.475 E0.02296
G1 X7.028 Y-4.168 E0.02856
G1 X3.492 Y-10.566 E0.12157
G1 X2.626 Y-11.691 E0.02361
G1 X2.117 Y-12.023 E0.01011
G1 X1.904 Y-12.049 E0.00357
G1 X1.592 Y-11.999 E0.00525
G1 X0.652 Y-11.246 E0.02003
G1 X-1.257 Y-.849 E0.17579
G1 X-1.651 Y0.798 E0.02816
G1 X-1.631 Y1.698 E0.01497
G1 X-.142 Y1.85 E0.02489
G1 X0.831 Y1.66 E0.01649
G0 F7200 X1.024 Y1.61
G0 X0.846 Y0.927
G0 X3.113 Y-.961
;TYPE:SKIN
G1 F1800 X3.319 Y-.894 E0.0036
G1 X4.583 Y-1.226 E0.02173
G1 F1659 X5.428 Y-1.415 E0.01562
G1 F1361.1 X5.78 Y-1.751 E0.0107
G1 F1218.3 X5.787 Y-1.823 E0.00178
G1 F1451.6 X5.627 Y-2.284 E0.01006
G1 F1800 X4.216 Y-4.838 E0.04852
G1 X4.033 Y-4.911 E0.00328
G1 X3.873 Y-4.859 E0.0028
G1 X3.814 Y-4.791 E0.0015
G1 X3.068 Y-1.086 E0.06285
G1 X3.113 Y-.961 E0.00221
G0 F7200 X0.651 Y0.897
G1 F1800 X-.174 Y1.058 E0.01398
G1 X-.864 Y0.99 E0.01153
G1 X-.867 Y0.881 E0.00181
G1 X-.489 Y-.697 E0.02698
G1 X1.364 Y-10.818 E0.17111
G1 X1.889 Y-11.236 E0.01116
G1 X2.09 Y-11.106 E0.00398
G1 X2.84 Y-10.13 E0.02047
G1 X6.28 Y-3.905 E0.11828
G1 X6.53 Y-2.447 E0.0246
G1 X6.505 Y-2.188 E0.00433
G1 F1451.6 X6.375 Y-1.8 E0.00844
G1 F1218.3 X6.352 Y-1.536 E0.00651
G1 F1278.9 X5.753 Y-.991 E0.01896
G1 F1457.5 X5.596 Y-.803 E0.00503
G1 F1690.1 X4.965 Y-.234 E0.01505
G1 F1800 X0.651 Y0.897 E0.07417
G0 F7200 X-.582 Y0.549
G1 F1800 X-.286 Y0.846 E0.00697
G0 F7200 X0.212 Y0.778
G1 F1800 X-.473 Y0.093 E0.01611
G0 F7200 X-.364 Y-.364
G1 F1800 X0.682 Y0.682 E0.0246
G0 F7200 X1.13 Y0.564
G1 F1800 X-.262 Y-.828 E0.03274
G0 F7200 X-.175 Y-1.306
G1 F1800 X1.578 Y0.447 E0.04123
G0 F7200 X2.027 Y0.33
G1 F1800 X-0.087 Y-1.784 E0.04972
G0 F7200 X0.00 Y-2.263
G1 F1800 X2.475 Y0.212 E0.05821
G0 F7200 X2.922 Y0.094
G1 F1800 X0.088 Y-2.741 E0.06666
G0 F7200 X0.175 Y-3.219
G1 F1800 X3.371 Y-0.023 E0.07517
G0 F7200 X3.819 Y-.141
G1 F1800 X3.207 Y-.753 E0.01439
G0 F7200 X2.865 Y-1.095
G1 F1800 X0.263 Y-3.697 E0.0612
G0 F7200 X0.35 Y-4.175
G1 F1800 X2.957 Y-1.568 E0.06131
G0 F7200 X3.053 Y-2.039
G1 F1800 X0.438 Y-4.653 E0.06149
G0 F7200 X0.525 Y-5.131
G1 F1800 X3.148 Y-2.509 E0.06168
G0 F7200 X3.243 Y-2.98
G1 F1800 X0.613 Y-5.609 E0.06184
G0 F7200 X0.7 Y-6.088
G1 F1800 X3.338 Y-3.45 E0.06204
G0 F7200 X3.434 Y-3.92
G1 F1800 X0.788 Y-6.566 E0.06223
G0 F7200 X0.875 Y-7.044
G1 F1800 X3.528 Y-4.391 E0.06239
G0 F7200 X3.624 Y-4.861
G1 F1800 X0.963 Y-7.522 E0.06258
G0 F7200 X1.05 Y-8.001
G1 F1800 X3.959 Y-5.092 E0.06842
G1 X4.029 Y-5.022
G0 F7200 X4.735 Y-4.316
G1 F1800 X6.27 Y-2.781 E0.0361
G0 F7200 X6.296 Y-2.189
G1 F1800 X5.426 Y-3.06 E0.02047
G1 X5.356 Y-3.13
G0 F7200 X6.153 Y-3.463
G1 F1800 X1.138 Y-8.479 E0.11796
G0 F7200 X1.225 Y-8.957
G1 F1800 X5.773 Y-4.41 E0.10695
G1 X5.843 Y-4.34
G0 F7200 X5.074 Y-5.674
G1 F1800 X1.313 Y-9.435 E0.08845
G0 F7200 X1.4 Y-9.914
G1 F1800 X4.376 Y-6.938 E0.06999
G1 X4.446 Y-6.868
G0 F7200 X3.677 Y-8.202
G1 F1800 X1.488 Y-10.392 E0.05149
G0 F7200 X1.653 Y-10.793
G1 F1800 X2.978 Y-9.467 E0.03117
G1 X3.048 Y-9.397
G0 F7200 X4.627 Y-1.03
G1 F1800 X5.058 Y-.599 E0.01014
G0 F7200 X5.346 Y-.876
G1 F1800 X5.103 Y-1.119 E0.00571
G0 F7200 X4.715 Y-.376
G1 F1800 X4.178 Y-.913 E0.01263
G0 F7200 X3.73 Y-.795
G1 F1800 X4.267 Y-.259 E0.01262
G0 F7200 X4.264 Y-.279
G1 F1500 E-1
G1 F600 Z5.5
;MESH:NONMESH
G0 F7200 X4.264 Y-.279 Z5.5
G0 X4.266 Y-.28
G0 X0.713 Y0.713
;TIME_ELAPSED:21.641303
;LAYER:3
;TYPE:FILL
;MESH:C:\Users\jacob\OneDrive\Documents\Research\Core-R-Theta\EasyS4\output_models\deformed\dino_1773870177.3431718_deformed_tet.stl
G0 F3600 X0.713 Y0.713 Z5.6
G1 F600 Z0.6
G1 F1500 E1
G1 F3600 X-0.04 Y-0.04
G1 X0.643 Y0.643 E0.01606
G1 X0.713 Y0.713
G0 F7200 X-0.058 Y0.058
G1 F3600 X5.179 Y-5.179 E0.12317
G1 X5.249 Y-5.249
G0 F7200 X3.997 Y-7.316
G1 F3600 X1.713 Y-9.6 E0.05372
G1 X1.643 Y-9.67
G0 F7200 X3.164 Y-8.821
G1 F3600 X1.213 Y-6.87 E0.04588
G1 X1.143 Y-6.8
G0 F7200 X0.837 Y-4.82
G1 F3600 X5.124 Y-.533 E0.10082
G1 X5.194 Y-.463
G0 F7200 X6.165 Y-.508
G1 F3600 X7.037 Y-1.38 E0.02051
G1 X7.107 Y-1.45
G0 F7200 X6.897 Y-1.468
G0 X-0.095 Y1.571
G0 X-0.08 Y1.878
;TYPE:WALL-INNER
G1 F3600 X1.347 Y1.602 E0.02417
G1 X5.076 Y0.626 E0.0641
G1 X7.179 Y-1.159 E0.04587
G1 X7.311 Y-2.651 E0.02491
G1 X6.973 Y-4.618 E0.03319
G1 X4.144 Y-9.738 E0.09728
G1 X2.826 Y-11.453 E0.03597
G1 X2.126 Y-11.912 E0.01392
G1 X1.898 Y-11.938 E0.00382
G1 X1.52 Y-11.876 E0.00637
G1 X0.182 Y-10.807 E0.02848
G1 X-1.461 Y-1.847 E0.15149
G1 X-2.053 Y0.617 E0.04214
G1 X-2.028 Y1.683 E0.01773
G1 X-0.08 Y1.878 E0.03256
G0 F7200 X-0.094 Y1.569
G0 X1.283 Y1.304
G0 X1.435 Y1.992
;TYPE:WALL-OUTER
G1 F1800 X5.265 Y0.99 E0.06584
G1 X7.563 Y-.96 E0.05012
G1 X7.714 Y-2.667 E0.0285
G1 X7.356 Y-4.752 E0.03518
G1 X4.48 Y-9.958 E0.09891
G1 X3.102 Y-11.751 E0.03761
G1 X2.266 Y-12.298 E0.01661
G1 X1.889 Y-12.342 E0.00631
G1 X1.352 Y-12.254 E0.00905
G1 X-.184 Y-11.026 E0.0327
G1 X-1.857 Y-1.909 E0.15415
G1 X-2.455 Y0.574 E0.04247
G1 X-2.42 Y2.046 E0.02449
G1 X-0.062 Y2.282 E0.03941
G1 X1.435 Y1.992 E0.02536
G0 F7200 X1.628 Y1.942
G0 X1.45 Y1.26
G0 X1.991 Y-10.976
;TYPE:SKIN
G1 F1417.3 X1.898 Y-10.967 E0.00197
G1 F1398.1 X1.789 Y-10.889 E0.00287
G1 F1585.9 X1.672 Y-10.156 E0.01401
G1 F1800 X-.334 Y0.771 E0.18475
G1 F1651.4 X-.147 Y1.017 E0.0056
G1 F1493.8 X1.134 Y0.706 E0.02642
G1 F1463.4 X5.54 Y-.448 E0.09316
G1 X5.583 Y-.365 E0.00191
G1 X4.875 Y0.236 E0.019
G1 X1.256 Y1.182 E0.07651
G1 F1522.2 X-0.095 Y1.464 E0.02714
G1 F1690.1 X-1.067 Y1.392 E0.01726
G1 F1800 X-1.655 Y1.334 E0.00983
G1 X-1.671 Y0.658 E0.01125
G1 X-1.101 Y-1.701 E0.04036
G1 X0.528 Y-10.594 E0.15035
G1 F1739.1 X1.19 Y-11.107 E0.01442
G1 F1519 X1.706 Y-11.459 E0.01231
G1 F1387.3 X1.969 Y-11.487 E0.00571
G1 F1506.3 X2.552 Y-11.152 E0.01336
G1 X3.15 Y-10.311 E0.02051
G1 F1304.3 X3.748 Y-9.47 E0.02368
G1 F1220.3 X6.518 Y-4.457 E0.14049
G1 F1379.3 X6.726 Y-3.638 E0.01834
G1 F1607.1 X6.905 Y-2.635 E0.01898
G1 F1629 X6.836 Y-1.85 E0.01448
G1 X6.589 Y-1.84 E0.00454
G1 F1618 X6.314 Y-3.466 E0.03051
G1 F1390 X5.978 Y-4.216 E0.0177
G1 F1220.3 X3.243 Y-9.166 E0.13872
G1 F1304.3 X2.731 Y-10.013 E0.02271
G1 F1506.3 X2.219 Y-10.861 E0.01969
G1 F1538.5 X1.991 Y-10.976 E0.00497
G0 F7200 X0.677 Y-10.293
G1 F1800 X1.098 Y-10.715 E0.00991
G1 X1.319 Y-10.935 E0.00519
G0 F7200 X1.53 Y-10.581
G1 F1800 X1.455 Y-10.506 E0.00176
G1 X1.455 Y-10.505
G1 X0.55 Y-9.601 E0.02127
G0 F7200 X0.423 Y-8.908
G1 F1800 X1.422 Y-9.907 E0.02349
G0 F7200 X1.295 Y-9.214
G1 F1800 X0.296 Y-8.216 E0.02348
G0 F7200 X0.17 Y-7.524
G1 F1800 X1.167 Y-8.521 E0.02345
G0 F7200 X1.041 Y-7.829
G1 F1800 X0.042 Y-6.831 E0.02348
G0 F7200 X-0.084 Y-6.138
G1 F1800 X0.914 Y-7.136 E0.02347
G0 F7200 X0.786 Y-6.443
G1 F1800 X-.211 Y-5.445 E0.02346
G0 F7200 X-.338 Y-4.753
G1 F1800 X0.66 Y-5.751 E0.02347
G0 F7200 X0.532 Y-5.058
G1 F1800 X-.465 Y-4.061 E0.02345
G0 F7200 X-.592 Y-3.368
G1 F1800 X0.405 Y-4.365 E0.02345
G0 F7200 X0.278 Y-3.672
G1 F1800 X-.718 Y-2.676 E0.02342
G0 F7200 X-.845 Y-1.983
G1 F1800 X0.151 Y-2.98 E0.02344
G0 F7200 X0.024 Y-2.287
G1 F1800 X-1 Y-1.263 E0.02408
G0 F7200 X-1.18 Y-.517
G1 F1800 X-.103 Y-1.594 E0.02533
G0 F7200 X-.23 Y-.902
G1 F1800 X-1.36 Y0.229 E0.02659
G0 F7200 X-1.464 Y0.899
G1 F1800 X-.357 Y-.209 E0.02605
G0 F7200 X-.484 Y0.484
G1 F1800 X-1.188 Y1.188 E0.01656
G0 F7200 X-.61 Y1.176
G1 F1800 X-.388 Y0.954 E0.00522
;MESH:NONMESH
G0 F600 X-.388 Y0.954 Z0.7
G0 F7200 X-.714 Y-.714
;TIME_ELAPSED:28.866296
;LAYER:4
;TYPE:FILL
;MESH:C:\Users\jacob\OneDrive\Documents\Research\Core-R-Theta\EasyS4\output_models\deformed\dino_1773870177.3431718_deformed_tet.stl
G1 F3600 X1.032 Y1.032 E0.04106
G1 X1.102 Y1.102
G0 F7200 X-1.086 Y1.086
G1 F3600 X5.6 Y-5.6 E0.15724
G0 F7200 X5.459 Y-5.855
G1 F3600 X1.042 Y-10.272 E0.10388
G1 X0.972 Y-10.342
G0 F7200 X3.586 Y-9.243
G1 F3600 X0.238 Y-5.895 E0.07874
G0 F7200 X0.164 Y-5.493
G1 F3600 X5.513 Y-.144 E0.1258
G1 X5.641 Y-0.016
G1 X5.859 Y0.202 E0.00513
G0 F7200 X5.652 Y0.005
G1 F3600 X7.456 Y-1.8 E0.04244
G1 X7.526 Y-1.87
G0 F7200 X7.315 Y-1.889
G0 X-0.014 Y2.005
G0 X-0.004 Y2.314
;TYPE:WALL-INNER
G1 F3600 X1.954 Y1.934 E0.03317
G1 X5.008 Y1.134 E0.0525
G1 X7.548 Y-1.019 E0.05537
G1 X7.711 Y-2.843 E0.03045
G1 X7.305 Y-5.198 E0.03974
G1 X5.132 Y-9.134 E0.07477
G1 X3.302 Y-11.513 E0.04991
G1 X2.272 Y-12.185 E0.02045
G1 X1.878 Y-12.233 E0.0066
G1 X1.277 Y-12.134 E0.01013
G1 X-.654 Y-10.587 E0.04115
G1 X-2.065 Y-2.907 E0.12986
G1 X-2.858 Y0.389 E0.05638
G1 X-2.82 Y2.028 E0.02726
G1 X-0.004 Y2.314 E0.04707
G0 F7200 X-0.013 Y2.003
G0 X1.89 Y1.636
G0 X2.043 Y2.324
;TYPE:WALL-OUTER
G1 F1800 X5.197 Y1.498 E0.05422
G1 X7.932 Y-.82 E0.05962
G1 X8.114 Y-2.859 E0.03404
G1 X7.688 Y-5.332 E0.04173
G1 X5.468 Y-9.354 E0.0764
G1 X3.578 Y-11.811 E0.05155
G1 X2.413 Y-12.571 E0.02313
G1 X1.869 Y-12.637 E0.00911
G1 X1.109 Y-12.511 E0.01281
G1 X-1.02 Y-10.806 E0.04536
G1 X-2.461 Y-2.969 E0.13251
G1 X-3.259 Y0.346 E0.0567
G1 X-3.212 Y2.39 E0.034
G1 X0.014 Y2.718 E0.05393
G1 X2.043 Y2.324 E0.03437
G0 F7200 X2.236 Y2.274
G0 X2.058 Y1.592
G0 X-1.046 Y1.36
;TYPE:SKIN
G1 F1614.3 X-.131 Y1.449 E0.01705
G1 F1578.9 X0.76 Y1.278 E0.0172
G1 F1512.6 X1.741 Y1.038 E0.01999
G1 F1463.4 X5.468 Y0.064 E0.0788
G1 X5.51 Y0.143 E0.00183
G1 X4.807 Y0.744 E0.01892
G1 X1.865 Y1.514 E0.06221
G1 F1512.6 X0.875 Y1.723 E0.02002
G1 F1582.4 X-0.043 Y1.901 E0.01769
G1 F1618 X-1.089 Y1.798 E0.01945
G1 F1714.3 X-1.863 Y1.74 E0.01355
G1 F1800 X-2.447 Y1.682 E0.00976
G1 X-2.475 Y0.43 E0.02083
G1 X-1.698 Y-2.787 E0.05504
G1 X-.304 Y-10.374 E0.12828
G1 X1.127 Y-11.527 E0.03056
G1 X-.86 Y-.694 E0.18316
G1 X-1.227 Y0.812 E0.02578
G1 X-1.224 Y1.146 E0.00555
G1 F1714.3 X-1.046 Y1.36 E0.00486
G0 F7200 X-2.26 Y1.134
G1 F1800 X-1.854 Y1.54 E0.00955
G0 F7200 X-1.259 Y1.569
G1 F1800 X-2.273 Y0.556 E0.02384
G0 F7200 X-2.185 Y0.078
G1 F1800 X-1.421 Y0.841 E0.01796
G0 F7200 X-1.325 Y0.372
G1 F1800 X-2.075 Y-.378 E0.01764
G0 F7200 X-1.964 Y-.833
G1 F1800 X-1.215 Y-0.083 E0.01763
G0 F7200 X-1.104 Y-.538
G1 F1800 X-1.855 Y-1.289 E0.01766
G0 F7200 X-1.744 Y-1.744
G1 F1800 X-1.006 Y-1.006 E0.01736
G0 F7200 X-.918 Y-1.484
G1 F1800 X-1.635 Y-2.201 E0.01686
G0 F7200 X-1.525 Y-2.656
G1 F1800 X-.83 Y-1.962 E0.01633
G0 F7200 X-.742 Y-2.44
G1 F1800 X-1.432 Y-3.129 E0.01622
G0 F7200 X-1.344 Y-3.607
G1 F1800 X-.655 Y-2.918 E0.0162
G0 F7200 X-.567 Y-3.396
G1 F1800 X-1.257 Y-4.085 E0.01622
G0 F7200 X-1.169 Y-4.563
G1 F1800 X-.479 Y-3.874 E0.01622
G0 F7200 X-.392 Y-4.352
G1 F1800 X-1.081 Y-5.041 E0.0162
G0 F7200 X-.993 Y-5.519
G1 F1800 X-.304 Y-4.83 E0.0162
G0 F7200 X-.216 Y-5.308
G1 F1800 X-.905 Y-5.996 E0.01619
G0 F7200 X-.817 Y-6.474
G1 F1800 X-.129 Y-5.786 E0.01618
G0 F7200 X-0.041 Y-6.264
G1 F1800 X-.73 Y-6.952 E0.01619
G0 F7200 X-.642 Y-7.43
G1 F1800 X0.047 Y-6.742 E0.01619
G0 F7200 X0.134 Y-7.22
G1 F1800 X-.554 Y-7.908 E0.01618
G0 F7200 X-.467 Y-8.386
G1 F1800 X0.222 Y-7.698 E0.01619
G0 F7200 X0.31 Y-8.176
G1 F1800 X-.379 Y-8.864 E0.01619
G0 F7200 X-.291 Y-9.342
G1 F1800 X0.397 Y-8.654 E0.01618
G0 F7200 X0.485 Y-9.132
G1 F1800 X-.203 Y-9.82 E0.01618
G0 F7200 X-.1 Y-10.282
G1 F1800 X0.573 Y-9.609 E0.01583
G0 F7200 X0.661 Y-10.087
G1 F1800 X0.214 Y-10.534 E0.01051
G0 F7200 X0.527 Y-10.787
G1 F1800 X0.749 Y-10.565 E0.00522
G0 F7200 X6.644 Y-4.044
