;FLAVOR:Marlin
;TIME:6666
;Filament used: 0m
;Layer height: 0.2
;MINX:2.14748e+06
;MINY:2.14748e+06
;MINZ:2.14748e+06
;MAXX:-2.14748e+06
;MAXY:-2.14748e+06
;MAXZ:-2.14748e+06
;TARGET_MACHINE.NAME:Unknown

;Generated with Cura_SteamEngine 5.11.0
M104 S210
M105
M109 S210
G28 ;Home
G1 Z15.0 F6000 ;Move the platform down 15mm
G92 E0
G1 F200 E3
G92 E0
M82 ;absolute extrusion mode
G92 E0
G92 E0
G1 F1500 E-6.5
;LAYER_COUNT:136
;LAYER:0
;note -- min layer time used
M106 S255
;MESH:C:\Users\jacob\OneDrive\Documents\Research\Core-R-Theta\EasyS4\output_models\deformed\pi 3mm_deformed_tet.stl
G0 F3600 X7.628 Y-.123 Z0.3
;TYPE:WALL-INNER
G1 F1500 E0
G1 F598.5 X7.626 Y-.275 E0.00287
G0 F3600 X7.226 Y-.275
;TYPE:WALL-OUTER
G1 F600 X7.171 Y2.851 E0.06168
G1 X7.382 Y2.424 E0.07064
G1 X8.051 Y-.16 E0.12085
G1 X8.02 Y-.343 E0.12434
G1 F496.9 X7.869 Y-.723 E0.13362
G1 F462.4 X7.729 Y-1.78 E0.15965
G1 F508.5 X7.541 Y-2.703 E0.18056
G1 X7.255 Y-3.169 E0.19269
G1 X7.261 Y-1.74 E0.22441
G1 F462.4 X7.309 Y-.674 E0.25046
G1 F496.9 X7.226 Y-.275 E0.25971
G0 F3600 X7.223 Y-0.075
G1 F1500 E-6.24029
;MESH:NONMESH
G0 F600 X7.223 Y-0.075 Z0.5
G0 F3600 X7.536 Y-0.068
G0 X7.405 Y1.497
G0 X7.529 Y2.5
;TIME_ELAPSED:4.037865
;LAYER:1
;note -- min layer time used
;TYPE:WALL-INNER
;MESH:C:\Users\jacob\OneDrive\Documents\Research\Core-R-Theta\EasyS4\output_models\deformed\pi 3mm_deformed_tet.stl
G1 F1500 E0.25971
G1 F780.9 X7.536 Y2.788 E0.26332
G1 X7.528 Y4.435 E0.28398
G1 X7.897 Y4.437 E0.28861
G1 X8.247 Y3.99 E0.29573
G1 X9.02 Y2.29 E0.31914
G1 X9.585 Y-.157 E0.35064
G1 X9.477 Y-.561 E0.35588
G1 X9.084 Y-2.746 E0.38372
G1 X7.904 Y-4.785 E0.41327
G1 X7.556 Y-4.781 E0.41763
G1 X7.588 Y-2.389 E0.44763
G1 X7.592 Y-.117 E0.47612
G1 X7.529 Y2.5 E0.50895
G0 F5400 X7.136 Y2.786
;TYPE:WALL-OUTER
G1 F780.9 X7.126 Y4.833 E0.53462
G1 X8.091 Y4.839 E0.54672
G1 X8.591 Y4.199 E0.55691
G1 X9.401 Y2.419 E0.58143
G1 X9.997 Y-.167 E0.61471
G1 X9.871 Y-.632 E0.62075
G1 X9.483 Y-2.788 E0.64822
G1 X9.337 Y-3.108 E0.65263
G1 X8.133 Y-5.187 E0.68276
G1 X7.151 Y-5.177 E0.69508
G1 X7.188 Y-2.389 E0.73004
G1 X7.192 Y-.127 E0.75841
G1 X7.129 Y2.51 E0.79149
G1 X7.136 Y2.786 E0.79495
G0 F5400 X7.136 Y2.986
G0 X7.916 Y2.789
;TYPE:SKIN
G1 F780.9 X7.908 Y2.502 E0.79855
G1 X7.972 Y-.106 E0.83127
G1 X7.972 Y-.384 E0.83475
G1 F697.2 X8.018 Y-1.389 E0.84888
G1 F573.1 X8.064 Y-2.394 E0.86607
G1 F529.4 X8.044 Y-3.595 E0.88829
G1 F532.1 X8.632 Y-2.577 E0.90992
G1 F529.4 X8.653 Y-2.448 E0.91234
G1 F573.1 X8.88 Y-1.458 E0.9297
G1 F697.2 X9.106 Y-.467 E0.94397
G1 F780.9 X9.193 Y-.148 E0.94812
G1 X8.657 Y2.163 E0.97787
G1 X7.913 Y3.79 E1.0003
G1 X7.916 Y2.789 E1.01286
G0 F5400 X8.112 Y2.636
G1 F780.9 X8.313 Y2.435 E1.01642
G0 F5400 X8.12 Y2.063
G1 F780.9 X8.581 Y1.601 E1.02461
G0 F5400 X8.134 Y1.483
G1 F780.9 X8.753 Y0.864 E1.03558
G0 F5400 X8.148 Y0.903
G1 F780.9 X8.924 Y0.127 E1.04935
G0 F5400 X8.909 Y-.424
G1 F780.9 X8.162 Y0.323 E1.06259
G0 F5400 X8.172 Y-.252
G1 F780.9 X8.786 Y-.866 E1.07348
G0 F5400 X8.663 Y-1.309
G1 F780.9 X8.217 Y-.863 E1.08139
G0 F5400 X8.276 Y-1.488
G1 F780.9 X8.54 Y-1.752 E1.08607
G0 F5400 X8.335 Y-2.112
G1 F780.9 X8.417 Y-2.194 E1.08753
G1 F1500 E-5.41247
;MESH:NONMESH
G0 F600 X8.417 Y-2.194 Z0.7
G0 F5400 X7.397 Y-2.667
G0 X6.322 Y-2.653
G0 X-8.044 Y-2.464
;TIME_ELAPSED:10.144041
;LAYER:2
;note -- min layer time used
;TYPE:WALL-OUTER
;MESH:C:\Users\jacob\OneDrive\Documents\Research\Core-R-Theta\EasyS4\output_models\deformed\pi 3mm_deformed_tet.stl
G1 F1500 E1.08753
G1 F1604.2 X-8.097 Y-1.626 E1.09724
G1 F1383 X-8.15 Y-.787 E1.10852
G1 F1215.5 X-8.203 Y0.051 E1.12134
G1 F1500 E-5.37866
G0 F7200 X-7.285 Y0.034
G0 X6.257 Y1.901
G0 X7.35 Y1.928
G0 X7.818 Y2.959
G0 X7.508 Y2.968
;TYPE:WALL-INNER
G1 F1500 E1.12134
G1 F1479.8 X7.5 Y4.424 E1.1396
G1 X9.584 Y4.44 E1.16574
G1 X10.469 Y2.309 E1.19467
G1 X10.661 Y1.458 E1.20561
G1 X11.056 Y-.163 E1.22654
G1 X10.629 Y-1.744 E1.24707
G1 X10.462 Y-2.664 E1.2588
G1 X9.507 Y-4.788 E1.288
G1 X7.525 Y-4.772 E1.31286
G1 X7.561 Y-2.176 E1.34542
G1 X7.56 Y-.12 E1.3712
G1 X7.52 Y1.938 E1.39701
G1 X7.497 Y2.482 E1.40384
G1 X7.508 Y2.968 E1.40994
G0 F7200 X7.108 Y2.966
;TYPE:WALL-OUTER
G1 F1479.8 X7.098 Y4.821 E1.4332
G1 X9.85 Y4.842 E1.46771
G1 X10.852 Y2.431 E1.50045
G1 X11.049 Y1.552 E1.51175
G1 X11.469 Y-.169 E1.53397
G1 X11.023 Y-1.816 E1.55536
G1 X10.847 Y-2.784 E1.5677
G1 X9.976 Y-4.712 E1.59423
G1 X9.769 Y-5.19 E1.60076
G1 X7.119 Y-5.169 E1.634
G1 X7.161 Y-2.174 E1.67156
G1 X7.16 Y-.128 E1.69722
G1 X7.12 Y1.921 E1.72292
G1 X7.097 Y2.478 E1.72991
G1 X7.108 Y2.966 E1.73603
G0 F7200 X7.107 Y3.166
G0 X7.889 Y2.97
;TYPE:SKIN
G1 F1479.8 X7.876 Y2.486 E1.7421
G1 X7.9 Y1.953 E1.74879
G1 X7.941 Y-.143 E1.77508
G1 X7.941 Y-2.177 E1.80059
G1 X7.911 Y-4.393 E1.82838
G1 X9.259 Y-4.403 E1.84529
G1 X10.095 Y-2.548 E1.8708
G1 X10.258 Y-1.647 E1.88228
G1 X10.661 Y-.161 E1.90159
G1 X10.277 Y1.42 E1.92199
G1 X10.104 Y2.187 E1.93185
G1 X9.33 Y4.055 E1.95721
G1 X7.882 Y4.045 E1.97537
G1 X7.889 Y2.97 E1.98885
G0 F7200 X8.084 Y3.559
G1 F1479.8 X8.373 Y3.847 E1.99397
G0 F7200 X8.943 Y3.852
G1 F1479.8 X8.089 Y2.997 E2.00912
G0 F7200 X8.079 Y2.422
G1 F1479.8 X9.289 Y3.632 E2.03058
G0 F7200 X9.455 Y3.232
G1 F1479.8 X8.101 Y1.879 E2.05459
G0 F7200 X8.112 Y1.324
G1 F1479.8 X9.621 Y2.833 E2.08135
G0 F7200 X9.786 Y2.432
G1 F1479.8 X8.123 Y0.769 E2.11084
G0 F7200 X8.134 Y0.214
G1 F1479.8 X9.938 Y2.018 E2.14283
G0 F7200 X10.042 Y1.557
G1 F1479.8 X8.141 Y-.344 E2.17655
G0 F7200 X8.141 Y-.91
G1 F1479.8 X10.15 Y1.099 E2.21218
G0 F7200 X10.26 Y0.643
G1 F1479.8 X8.141 Y-1.476 E2.24976
G0 F7200 X8.141 Y-2.041
G1 F1479.8 X10.37 Y0.188 E2.28929
G0 F7200 X10.404 Y-.344
G1 F1479.8 X8.135 Y-2.613 E2.32953
G0 F7200 X8.127 Y-3.186
G1 F1479.8 X10.196 Y-1.118 E2.36621
G0 F7200 X10.015 Y-1.864
G1 F1479.8 X8.12 Y-3.76 E2.39983
G0 F7200 X8.249 Y-4.196
G1 F1479.8 X9.859 Y-2.586 E2.42838
G1 X9.929 Y-2.516
G0 F7200 X9.395 Y-3.616
G1 F1479.8 X8.811 Y-4.2 E2.43874
G1 X8.741 Y-4.27
G0 F7200 X8.741 Y-4.174
G1 F1500 E-4.06126
;MESH:NONMESH
G0 F600 X8.741 Y-4.174 Z0.9
G0 F7200 X7.391 Y-2.175
G0 X6.298 Y-2.172
G0 X-7.21 Y2.278
G0 X-8.299 Y2.502
G0 X-9.044 Y0.502
G0 X-8.509 Y0.376
;TIME_ELAPSED:16.509433
;LAYER:3
;note -- min layer time used
;TYPE:WALL-INNER
;MESH:C:\Users\jacob\OneDrive\Documents\Research\Core-R-Theta\EasyS4\output_models\deformed\pi 3mm_deformed_tet.stl
G1 F1500 E2.43874
G1 F3009.5 X-8.532 Y-0.002 E2.44389
G1 F3193.5 X-8.507 Y-1.158 E2.45872
G1 F2551 X-8.664 Y-1.554 E2.46555
G1 X-8.868 Y-1.18 E2.47239
G1 F3281.7 X-8.998 Y0.079 E2.48819
G1 F3080.5 X-8.702 Y1.342 E2.50543
G1 F3162.5 X-8.449 Y2.009 E2.51467
G1 X-8.509 Y0.376 E2.53582
G0 F7200 X-8.682 Y0.32
G0 X-8.664 Y-1.554
G1 F2232.7 X-8.607 Y-2.494 E2.5531
G0 F7200 X-8.682 Y0.32
G0 X-8.104 Y0.352
;TYPE:WALL-OUTER
G1 F1800 X-8.174 Y-3.926 E2.60675
G1 X-8.595 Y-3.386 E2.61534
G1 X-9.043 Y-2.65 E2.62614
G1 X-9.424 Y0.031 E2.6601
G1 X-9.092 Y1.461 E2.67851
G1 X-8.628 Y2.673 E2.69479
G1 X-8.252 Y3.26 E2.70353
G1 X-7.999 Y3.583 E2.70867
G1 X-8.007 Y2.913 E2.71708
G1 X-8.104 Y0.352 E2.74921
G0 F7200 X-8.107 Y0.153
G1 F1500 E-3.75079
G0 F7200 X-8.726 Y0.131
G0 X-8.24 Y2.858
G0 X-7.147 Y2.816
G0 X6.216 Y3.145
G0 X7.309 Y3.144
G0 X9.453 Y4.118
G0 X9.454 Y4.424
;TYPE:WALL-INNER
G1 F1500 E2.74921
G1 F3265.3 X11.024 Y4.458 E2.76891
G1 X11.634 Y3.001 E2.78872
G1 X11.816 Y2.391 E2.7967
G1 X11.835 Y2.202 E2.79908
G1 X12.229 Y-.169 E2.82922
G1 X12.175 Y-.609 E2.83478
G1 X11.765 Y-2.695 E2.86144
G1 X11.625 Y-3.137 E2.86725
G1 X10.904 Y-4.794 E2.88992
G1 X7.493 Y-4.76 E2.93269
G1 X7.532 Y-1.952 E2.96791
G1 X7.533 Y-.132 E2.99073
G1 X7.496 Y1.719 E3.01395
G1 X7.465 Y2.478 E3.02348
G1 X7.48 Y3.152 E3.03193
G1 X7.472 Y4.411 E3.04772
G1 X9.454 Y4.424 E3.07257
G0 F7200 X9.445 Y4.824
;TYPE:WALL-OUTER
G1 F1800 X11.288 Y4.864 E3.09569
G1 X12.011 Y3.136 E3.11918
G1 X12.21 Y2.469 E3.12791
G1 X12.234 Y2.233 E3.13089
G1 X12.633 Y-.161 E3.16132
G1 X12.57 Y-.672 E3.16778
G1 X12.153 Y-2.794 E3.1949
G1 X12 Y-3.277 E3.20125
G1 X11.165 Y-5.198 E3.22752
G1 X7.087 Y-5.157 E3.27866
G1 X7.132 Y-1.952 E3.31886
G1 X7.133 Y-.132 E3.34168
G1 X7.096 Y1.703 E3.3647
G1 X7.065 Y2.474 E3.37437
G1 X7.08 Y3.15 E3.38285
G1 X7.07 Y4.809 E3.40366
G1 X9.445 Y4.824 E3.43344
G0 F7200 X9.645 Y4.828
G0 X9.66 Y4.122
G0 X9.004 Y2.273
;TYPE:SKIN
G1 F1800 X9.554 Y-.126 E3.46431
G1 X9.46 Y-.545 E3.46969
G1 X9.052 Y-2.764 E3.49798
G1 X8.117 Y-4.383 E3.52143
G1 X10.657 Y-4.41 E3.55328
G1 X11.264 Y-3.005 E3.57248
G1 X11.393 Y-2.598 E3.57783
G1 X11.856 Y-.245 E3.60791
G1 X11.454 Y2.15 E3.63836
G1 X11.438 Y2.322 E3.64053
G1 X11.275 Y2.872 E3.64772
G1 X10.772 Y4.069 E3.664
G1 X9.46 Y4.044 E3.68046
G1 X8.206 Y4.034 E3.69618
G1 X9.004 Y2.273 E3.72043
G0 F7200 X10.281 Y3.861
G1 F1800 X10.903 Y3.239 E3.73146
G1 X10.973 Y3.169
G0 F7200 X11.22 Y2.357
G1 F1800 X9.723 Y3.853 E3.758
G0 F7200 X9.166 Y3.845
G1 F1800 X11.331 Y1.68 E3.7964
G0 F7200 X11.445 Y1.001
G1 F1800 X8.608 Y3.837 E3.8467
G1 X8.538 Y3.907
G0 F7200 X8.911 Y2.968
G1 F1800 X11.558 Y0.321 E3.89364
G0 F7200 X11.637 Y-.323
G1 F1800 X9.259 Y2.055 E3.93582
G0 F7200 X9.427 Y1.321
G1 F1800 X11.544 Y-.795 E3.97335
G0 F7200 X11.451 Y-1.269
G1 F1800 X9.596 Y0.586 E4.00625
G0 F7200 X9.764 Y-.148
G1 F1800 X11.358 Y-1.741 E4.03451
G0 F7200 X11.265 Y-2.214
G1 F1800 X9.653 Y-.602 E4.0631
G0 F7200 X9.566 Y-1.081
G1 F1800 X11.159 Y-2.674 E4.09135
G0 F7200 X11.009 Y-3.089
G1 F1800 X9.479 Y-1.56 E4.11848
G0 F7200 X9.392 Y-2.039
G1 F1800 X10.839 Y-3.485 E4.14413
G0 F7200 X10.667 Y-3.879
G1 F1800 X9.306 Y-2.517 E4.16828
G0 F7200 X9.174 Y-2.951
G1 F1800 X10.431 Y-4.208 E4.19057
G0 F7200 X9.858 Y-4.202
G1 F1800 X8.968 Y-3.311 E4.20636
G0 F7200 X8.76 Y-3.669
G1 F1800 X9.287 Y-4.196 E4.21571
G0 F7200 X8.715 Y-4.19
G1 F1800 X8.554 Y-4.028 E4.21857
G1 F1500 E-2.28143
;MESH:NONMESH
G0 F600 X8.554 Y-4.028 Z1.1
G0 F7200 X7.362 Y-1.956
G0 X6.269 Y-1.953
G0 X-7.242 Y0.327
G0 X-8.367 Y3.101
;TIME_ELAPSED:23.036958
;LAYER:4
;TYPE:WALL-INNER
;MESH:C:\Users\jacob\OneDrive\Documents\Research\Core-R-Theta\EasyS4\output_models\deformed\pi 3mm_deformed_tet.stl
G1 F1500 E4.21857
G1 F3600 X-8.464 Y0.544 E4.25066
G1 X-8.465 Y-0.029 E4.25785
G1 X-8.524 Y-3.077 E4.29608
G1 X-8.539 Y-4.479 E4.31366
G1 X-8.986 Y-3.909 E4.32274
G1 X-9.839 Y-2.506 E4.34333
G1 X-9.949 Y-1.712 E4.35339
G1 X-10.152 Y0.026 E4.37533
G1 X-9.865 Y1.358 E4.39242
G1 X-9.615 Y2.432 E4.40624
G1 X-8.715 Y3.848 E4.42729
G1 X-8.353 Y4.307 E4.43462
G1 X-8.367 Y3.101 E4.44974
G0 F7200 X-7.967 Y3.096
;TYPE:WALL-OUTER
G1 F1800 X-8.064 Y0.544 E4.48177
G1 X-8.065 Y-0.036 E4.48904
G1 X-8.124 Y-3.081 E4.52723
G1 X-8.146 Y-5.126 E4.55288
G1 X-8.535 Y-5.13 E4.55776
G1 X-9.315 Y-4.137 E4.57359
G1 X-10.223 Y-2.643 E4.59552
G1 X-10.346 Y-1.758 E4.60672
G1 X-10.557 Y0.046 E4.6295
G1 X-10.255 Y1.448 E4.64748
G1 X-9.989 Y2.589 E4.66218
G1 X-9.048 Y4.072 E4.6842
G1 X-8.219 Y5.119 E4.70095
G1 X-7.943 Y5.117 E4.70441
G1 X-7.967 Y3.096 E4.72976
G0 F7200 X-7.974 Y2.897
G0 X-8.684 Y2.923
G0 X-8.889 Y1.187
;TYPE:SKIN
G1 F1330.9 X-8.824 Y2.835 E4.75773
G1 X-9.19 Y2.254 E4.76938
G1 X-9.424 Y1.258 E4.78673
G1 F1200 X-9.635 Y0.00 E4.81072
G1 F1192.1 X-9.494 Y-1.652 E4.84212
G1 F1368.8 X-9.423 Y-2.362 E4.85388
G1 F1437.1 X-8.946 Y-3.146 E4.8683
G1 X-8.931 Y-2.28 E4.8819
G1 F1368.8 X-8.945 Y-1.623 E4.89274
G1 F1192.1 X-8.973 Y-0.022 E4.92306
G1 F1146.5 X-8.943 Y0.544 E4.93422
G1 F1263.2 X-8.889 Y1.187 E4.94575
G0 F7200 X-9.05 Y1.191
G1 F1500 E-1.55425
G0 F7200 X-8.197 Y2.598
G0 X-7.124 Y2.557
G0 X6.168 Y2.497
G0 X7.261 Y2.472
G0 X7.645 Y1.988
;TYPE:FILL
G1 F1500 E4.94575
G1 F3600 X8.567 Y2.91 E4.97845
G0 F7200 X8.7 Y2.613
G1 F3600 X7.637 Y3.677 E5.01618
G0 F7200 X7.759 Y3.678
G0 X7.811 Y-2.035
G0 X7.691 Y-2.034
G1 F3600 X8.72 Y-3.063 E5.05267
G0 F7200 X9 Y-2.314
G1 F3600 X7.669 Y-3.645 E5.09988
G1 X7.634 Y-3.68
G1 X7.75 Y-3.564 E5.10194
G0 F7200 X7.788 Y-3.564
G0 X8.662 Y-3.005
G1 F3600 X9.677 Y-4.021 E5.11995
G1 X9.747 Y-4.091
G0 F7200 X8.902 Y-2.412
G1 F3600 X10.793 Y-.52 E5.1535
G1 X10.863 Y-.45
G0 F7200 X10.704 Y0.61
G1 F3600 X8.54 Y2.774 E5.19187
G1 X8.505 Y2.848
G1 X9.615 Y3.958 E5.21156
G0 F7200 X9.838 Y4.181
G1 F3600 X9.92 Y4.263 E5.21301
G0 F7200 X9.924 Y4.118
G0 X7.76 Y3.597
G0 X7.717 Y3.597
G1 F3600 X7.61 Y3.704 E5.21491
G0 F7200 X7.759 Y3.705
G0 X7.758 Y2.067
G0 X7.722 Y2.065
G1 F3600 X7.613 Y1.957 E5.21684
G0 F7200 X7.762 Y1.964
G0 X7.811 Y-2.005
G0 X7.661 Y-2.004
G1 F3600 X7.769 Y-2.112 E5.21875
G0 F7200 X7.81 Y-2.112
G0 X9.417 Y4.107
G0 X9.41 Y4.412
;TYPE:WALL-INNER
G1 F3600 X12.241 Y4.473 E5.25426
G1 X12.863 Y2.424 E5.28111
G1 X12.992 Y1.044 E5.2985
G1 X13.194 Y-.159 E5.31379
G1 X13.038 Y-1.478 E5.33045
G1 X12.797 Y-2.699 E5.34606
G1 X12.134 Y-4.801 E5.3737
G1 X9.449 Y-4.764 E5.40737
G1 X7.458 Y-4.748 E5.43234
G1 X7.504 Y-1.732 E5.47017
G1 X7.504 Y-.124 E5.49033
G1 X7.472 Y1.497 E5.51066
G1 X7.433 Y2.47 E5.52287
G1 X7.452 Y3.333 E5.5337
G1 X7.445 Y4.399 E5.54707
G1 X9.41 Y4.412 E5.57171
G0 F7200 X9.401 Y4.812
;TYPE:WALL-OUTER
G1 F1800 X12.536 Y4.88 E5.61103
G1 X13.258 Y2.501 E5.64221
G1 X13.386 Y1.11 E5.65973
G1 X13.598 Y-.149 E5.67574
G1 X13.434 Y-1.54 E5.6933
G1 X13.185 Y-2.798 E5.70938
G1 X12.426 Y-5.205 E5.74103
G1 X9.446 Y-5.164 E5.77841
G1 X7.052 Y-5.145 E5.80843
G1 X7.104 Y-1.732 E5.85124
G1 X7.104 Y-.132 E5.8713
G1 X7.072 Y1.481 E5.89153
G1 X7.033 Y2.466 E5.90389
G1 X7.052 Y3.33 E5.91473
G1 X7.042 Y4.797 E5.93313
G1 X9.401 Y4.812 E5.96271
G0 F7200 X9.6 Y4.816
G0 X9.616 Y4.111
G0 X11.031 Y-.164
;TYPE:SKIN
G1 F1800 X10.612 Y-1.724 E5.98297
G1 X10.439 Y-2.665 E5.99497
G1 X9.664 Y-4.388 E6.01866
G1 X11.853 Y-4.418 E6.04611
G1 X12.426 Y-2.598 E6.07004
G1 X12.662 Y-1.42 E6.08511
G1 X12.809 Y-.162 E6.10099
G1 X12.614 Y0.982 E6.11554
G1 X12.486 Y2.353 E6.13281
G1 X11.96 Y4.084 E6.1555
G1 X9.733 Y4.034 E6.18343
G1 X10.448 Y2.311 E6.20683
G1 X11.031 Y-.164 E6.23871
G0 F7200 X11.625 Y-4.214
G1 F1800 X11.746 Y-4.093 E6.24086
G0 F7200 X11.067 Y-4.207
G1 F1800 X12.006 Y-3.268 E6.25751
G1 X12.076 Y-3.198
G0 F7200 X12.251 Y-2.457
G1 F1800 X10.509 Y-4.199 E6.2884
G0 F7200 X9.988 Y-4.154
G1 F1800 X12.392 Y-1.75 E6.33104
G0 F7200 X12.501 Y-1.076
G1 F1800 X10.449 Y-3.128 E6.36743
G1 X10.379 Y-3.198
G0 F7200 X10.708 Y-2.303
G1 F1800 X12.576 Y-.435 E6.40056
G0 F7200 X12.56 Y0.115
G1 F1800 X10.854 Y-1.591 E6.43081
G0 F7200 X11.059 Y-.82
G1 F1800 X12.477 Y0.598 E6.45596
G0 F7200 X12.404 Y1.09
G1 F1800 X11.22 Y-0.094 E6.47696
G0 F7200 X11.111 Y0.363
G1 F1800 X12.355 Y1.607 E6.49902
G0 F7200 X12.306 Y2.124
G1 F1800 X11.004 Y0.822 E6.52211
G0 F7200 X10.896 Y1.279
G1 F1800 X12.206 Y2.589 E6.54535
G0 F7200 X12.074 Y3.023
G1 F1800 X10.788 Y1.737 E6.56815
G0 F7200 X10.68 Y2.195
G1 F1800 X11.942 Y3.457 E6.59053
G0 F7200 X11.8 Y3.881
G1 F1800 X10.537 Y2.617 E6.61294
G0 F7200 X10.371 Y3.017
G1 F1800 X11.222 Y3.868 E6.62803
G0 F7200 X10.643 Y3.854
G1 F1800 X10.205 Y3.417 E6.63579
G1 F1500 E0.13579
;MESH:NONMESH
G0 F600 X10.205 Y3.417 Z1.3
G0 F7200 X7.253 Y2.91
G0 X6.178 Y2.934
G0 X-7.105 Y3.045
G0 X-8.197 Y3.086
G0 X-8.323 Y3.28
;TIME_ELAPSED:30.989783
;LAYER:5
;TYPE:WALL-INNER
;MESH:C:\Users\jacob\OneDrive\Documents\Research\Core-R-Theta\EasyS4\output_models\deformed\pi 3mm_deformed_tet.stl
G1 F1500 E6.63579
G1 F3600 X-8.42 Y0.744 E6.66762
G1 X-8.424 Y0.044 E6.6764
G1 X-8.484 Y-3.252 E6.71774
G1 X-8.501 Y-4.715 E6.73609
G1 X-9.662 Y-4.727 E6.75065
G1 X-10.003 Y-4.169 E6.75885
G1 X-10.827 Y-2.534 E6.78181
G1 X-10.998 Y-1.52 E6.7947
G1 X-11.17 Y-0.013 E6.81372
G1 X-11.006 Y1.033 E6.827
G1 X-10.679 Y2.533 E6.84625
G1 X-10.444 Y3.048 E6.85335
G1 X-9.804 Y4.189 E6.86976
G1 X-9.474 Y4.704 E6.87743
G1 X-8.31 Y4.701 E6.89202
G1 X-8.323 Y3.28 E6.90985
G0 F7200 X-7.923 Y3.276
;TYPE:WALL-OUTER
G1 F1800 X-8.02 Y0.742 E6.94165
G1 X-8.024 Y0.037 E6.95049
G1 X-8.084 Y-3.257 E6.9918
G1 X-8.106 Y-5.11 E7.01504
G1 X-9.843 Y-5.13 E7.03682
G1 X-10.031 Y-4.893 E7.04062
G1 X-10.353 Y-4.363 E7.0484
G1 X-11.211 Y-2.66 E7.07231
G1 X-11.394 Y-1.576 E7.08609
G1 X-11.574 Y-0.005 E7.10592
G1 X-11.399 Y1.107 E7.12004
G1 X-11.061 Y2.66 E7.13997
G1 X-10.801 Y3.229 E7.14782
G1 X-10.148 Y4.393 E7.16455
G1 X-9.84 Y4.884 E7.17182
G1 X-9.667 Y5.104 E7.17533
