;FLAVOR:Marlin
;TIME:6666
;Filament used: 0m
;Layer height: 0.2
;MINX:2.14748e+06
;MINY:2.14748e+06
;MINZ:2.14748e+06
;MAXX:-2.14748e+06
;MAXY:-2.14748e+06
;MAXZ:-2.14748e+06
;TARGET_MACHINE.NAME:Unknown

;Generated with Cura_SteamEngine 5.11.0
M104 S210
M105
M109 S210
G28 ;Home
G1 Z15.0 F6000 ;Move the platform down 15mm
G92 E0
G1 F200 E3
G92 E0
M82 ;absolute extrusion mode
M83 ;relative extrusion mode
G1 F1500 E-1
;LAYER_COUNT:249
;LAYER:0
;note -- min layer time used
M106 S255
;MESH:C:\Users\jacob\OneDrive\Documents\Research\Core-R-Theta\EasyS4\output_models\deformed\Squirtle_1773854518.525448_deformed_tet.stl
G0 F3600 X-14.78 Y3.159 Z0.3
;TYPE:WALL-OUTER
G1 F1500 E1
G1 F1193.1 X-14.582 Y3.372 E0.00473
G1 F1500 E-1
G0 F3600 X-13.943 Y2.868
G0 X8.29 Y-12.193
G0 X9.111 Y-12.907
G0 X9.996 Y-13.766
G0 X9.71 Y-13.541
;TYPE:WALL-INNER
G1 F1500 E1
G1 F1032 X9.722 Y-13.306 E0.00443
G1 X9.397 Y-12.845 E0.01061
G1 X10.923 Y-11.084 E0.04383
G1 X11.342 Y-10.504 E0.01346
G1 X12.477 Y-10.589 E0.02141
G1 X12.845 Y-12.022 E0.02783
G1 X13.13 Y-13.559 E0.0294
G1 X13.157 Y-14.178 E0.01165
G1 X12.665 Y-14.134 E0.00929
G1 X12.361 Y-14.253 E0.00614
G1 X12.254 Y-14.358 E0.00282
G1 X12.121 Y-14.614 E0.00543
G1 X12.1 Y-14.865 E0.00474
G1 X12.209 Y-15.087 E0.00465
G1 X11.92 Y-15.039 E0.00551
G1 X11.669 Y-15.052 E0.00473
G1 X11.414 Y-15.193 E0.00548
G1 X10.561 Y-15.991 E0.02197
G1 X10.163 Y-16.29 E0.00936
G1 X9.822 Y-16.163 E0.00684
G1 X9.6 Y-16.136 E0.00421
G1 X8.948 Y-15.885 E0.01314
G1 X9.045 Y-15.805 E0.00237
G1 X9.238 Y-15.508 E0.00666
G1 X9.26 Y-15.376 E0.00252
G1 X9.227 Y-15.146 E0.00437
G1 X9.117 Y-14.839 E0.00613
G1 X9.186 Y-14.575 E0.00513
G1 X9.07 Y-14.428 E0.00352
G1 X9.634 Y-13.715 E0.0171
G1 X9.71 Y-13.541 E0.00357
G0 F3600 X9.996 Y-13.766
G0 X12.69 Y-13.814
G0 X12.603 Y-14.572
;TYPE:WALL-OUTER
G1 F1032 X12.504 Y-14.73 E0.00351
G1 X12.497 Y-14.814 E0.00159
G1 X12.553 Y-14.928 E0.00239
G1 X12.888 Y-15.271 E0.00902
G1 X13.157 Y-15.629 E0.00842
G1 X13.063 Y-15.729 E0.00258
G1 X12.424 Y-15.526 E0.01261
G1 X11.797 Y-15.424 E0.01195
G1 X11.687 Y-15.485 E0.00237
G1 X10.819 Y-16.298 E0.02237
G1 X10.304 Y-16.685 E0.01212
G1 X10.184 Y-16.726 E0.00239
G1 X9.712 Y-16.547 E0.0095
G1 X9.423 Y-16.493 E0.00553
G1 X8.394 Y-16.103 E0.0207
G1 X8.445 Y-15.784 E0.00608
G1 X8.789 Y-15.498 E0.00842
G1 X8.853 Y-15.399 E0.00222
G1 X8.849 Y-15.278 E0.00228
G1 X8.736 Y-15.061 E0.0046
G1 X8.711 Y-14.797 E0.00499
G1 X8.788 Y-14.536 E0.00512
G1 X8.631 Y-14.337 E0.00477
G1 X9.297 Y-13.5 E0.02012
G1 X9.326 Y-13.363 E0.00263
G1 X9.221 Y-13.214 E0.00343
G1 X8.757 Y-12.972 E0.00984
G1 X10.599 Y-10.85 E0.05286
G1 X11.149 Y-10.088 E0.01768
G1 X12.468 Y-10.188 E0.02488
G1 X12.741 Y-10.173 E0.00514
G1 X12.943 Y-10.796 E0.01232
G1 X13.236 Y-11.936 E0.02214
G1 X13.528 Y-13.512 E0.03015
G1 X13.56 Y-14.117 E0.0114
G1 X13.54 Y-14.574 E0.0086
G1 X13.276 Y-14.595 E0.00498
G1 X12.704 Y-14.532 E0.01082
G1 X12.603 Y-14.572 E0.00204
G0 F3600 X12.504 Y-14.73
G0 X12.503 Y-14.744
G0 X11.78 Y-14.392
G0 X10.088 Y-13.65
G0 X10.076 Y-13.641
;TYPE:SKIN
G1 F1032 X9.953 Y-13.917 E0.00568
G1 X9.52 Y-14.47 E0.01321
G1 X9.564 Y-14.613 E0.00281
G1 X9.508 Y-14.844 E0.00447
G1 X9.586 Y-15.014 E0.00352
G1 X9.638 Y-15.355 E0.00649
G1 X9.605 Y-15.59 E0.00446
G1 X9.548 Y-15.705 E0.00241
G1 X10.099 Y-15.858 E0.01076
G1 X10.311 Y-15.702 E0.00495
G1 X11.174 Y-14.895 E0.02223
G1 X11.558 Y-14.685 E0.00823
G1 X11.738 Y-14.669 E0.0034
G1 X11.76 Y-14.491 E0.00337
G1 X11.967 Y-14.105 E0.00824
G1 X12.125 Y-13.952 E0.00414
G1 X12.624 Y-13.757 E0.01008
G1 X12.779 Y-13.761 E0.00292
G1 X12.464 Y-12.068 E0.03239
G1 X12.174 Y-10.948 E0.02176
G1 X11.525 Y-10.897 E0.01225
G1 X11.227 Y-11.31 E0.00958
G1 X9.863 Y-12.885 E0.03919
G1 X10.099 Y-13.254 E0.00824
G1 X10.076 Y-13.641 E0.00729
G0 F3600 X10.088 Y-13.65
G0 X12.526 Y-13.495
G1 F1032 X12.386 Y-13.636 E0.00374
G0 F3600 X12.438 Y-13.018
G1 F1032 X9.868 Y-15.588 E0.06837
G0 F3600 X9.796 Y-15.095
G1 F1032 X12.35 Y-12.541 E0.06794
G0 F3600 X12.258 Y-12.067
G1 F1032 X9.747 Y-14.578 E0.0668
G1 X9.677 Y-14.648
G0 F3600 X10.282 Y-13.477
G1 F1032 X12.141 Y-11.618 E0.04945
G0 F3600 X12.024 Y-11.169
G1 F1032 X10.18 Y-13.013 E0.04905
G1 X10.11 Y-13.083
G0 F3600 X10.354 Y-12.674
G1 F1500 E-1
;MESH:NONMESH
G0 F600 X10.354 Y-12.674 Z0.5
G0 F3600 X9.111 Y-12.907
G0 X8.29 Y-12.193
G0 X-16.128 Y-1.369
;TIME_ELAPSED:7.630015
;LAYER:1
;TYPE:WALL-INNER
;MESH:C:\Users\jacob\OneDrive\Documents\Research\Core-R-Theta\EasyS4\output_models\deformed\Squirtle_1773854518.525448_deformed_tet.stl
G1 F1500 E1
G1 F2700 X-16.263 Y-1.243 E0.00232
G1 X-16.477 Y-1.152 E0.00292
G1 X-17.042 Y-1.075 E0.00715
G1 X-17.068 Y-.98 E0.00124
G1 X-17.182 Y-.893 E0.0018
G1 X-17.509 Y-.765 E0.0044
G1 X-17.402 Y-.275 E0.00629
G1 X-17.068 Y0.29 E0.00823
G1 X-16.45 Y1.114 E0.01292
G1 X-15.509 Y2.122 E0.01729
G1 X-14.781 Y2.807 E0.01254
G1 X-14.286 Y3.15 E0.00755
G1 X-14.007 Y3.39 E0.00462
G1 X-13.511 Y3.691 E0.00728
G1 X-13.436 Y3.75 E0.0012
G1 X-12.469 Y4.007 E0.01255
G1 X-12.159 Y4.118 E0.00413
G1 X-12.223 Y3.481 E0.00803
G1 X-12.407 Y3.13 E0.00497
G1 X-12.681 Y2.005 E0.01452
G1 X-12.836 Y1.447 E0.00726
G1 X-13.101 Y0.161 E0.01647
G1 X-13.16 Y-.365 E0.00664
G1 X-13.56 Y-1.162 E0.01118
G1 X-13.661 Y-1.594 E0.00556
G1 X-14.087 Y-3.264 E0.02161
G1 X-14.206 Y-3.394 E0.00221
G1 X-14.311 Y-3.737 E0.0045
G1 X-14.892 Y-3.676 E0.00733
G1 X-15.244 Y-3.722 E0.00445
G1 X-15.445 Y-3.804 E0.00272
G1 X-15.548 Y-3.536 E0.0036
G1 X-15.623 Y-3.447 E0.00146
G1 X-15.856 Y-3.306 E0.00342
G1 X-15.908 Y-1.901 E0.01763
G1 X-15.945 Y-1.715 E0.00238
G1 X-16.128 Y-1.369 E0.00491
G0 F5400 X-15.843 Y-1.227
G0 X-17.011 Y-.616
G0 X-17.302 Y-1.431
;TYPE:WALL-OUTER
G1 F1800 X-17.349 Y-1.251 E0.00233
G1 X-17.976 Y-1.023 E0.00837
G1 X-17.779 Y-.127 E0.0115
G1 X-17.401 Y0.512 E0.00931
G1 X-16.911 Y1.167 E0.01026
G1 X-16.582 Y1.559 E0.00642
G1 X-15.781 Y2.416 E0.01471
G1 X-15.033 Y3.119 E0.01287
G1 X-14.496 Y3.493 E0.00821
G1 X-14.245 Y3.714 E0.00419
G1 X-13.735 Y4.022 E0.00747
G1 X-13.636 Y4.111 E0.00167
G1 X-12.556 Y4.399 E0.01402
G1 X-11.919 Y4.629 E0.00849
G1 X-11.677 Y4.635 E0.00304
G1 X-11.698 Y4.271 E0.00457
G1 X-11.781 Y3.988 E0.0037
G1 X-11.832 Y3.353 E0.00799
G1 X-12.019 Y3.036 E0.00462
G1 X-12.296 Y1.897 E0.0147
G1 X-12.444 Y1.365 E0.00692
G1 X-12.703 Y0.115 E0.01601
G1 X-12.771 Y-.481 E0.00752
G1 X-13.187 Y-1.307 E0.0116
G1 X-13.273 Y-1.692 E0.00495
G1 X-13.732 Y-3.491 E0.02328
G1 X-13.866 Y-3.606 E0.00221
G1 X-14.01 Y-4.175 E0.00736
G1 X-14.893 Y-4.077 E0.01114
G1 X-15.146 Y-4.11 E0.0032
G1 X-15.433 Y-4.238 E0.00394
G1 X-15.762 Y-4.226 E0.00413
G1 X-15.903 Y-3.733 E0.00643
G1 X-16.064 Y-3.668 E0.00218
G1 X-16.201 Y-3.689 E0.00174
G1 X-16.293 Y-3.789 E0.0017
G1 X-16.257 Y-3.337 E0.00569
G1 X-16.309 Y-1.875 E0.01835
G1 X-16.442 Y-1.616 E0.00365
G1 X-16.559 Y-1.544 E0.00172
G1 X-16.792 Y-1.532 E0.00293
G1 X-17.302 Y-1.431 E0.00652
G0 F5400 X-17.349 Y-1.251
G0 X-17.362 Y-1.247
G0 X-17.122 Y-.575
G0 X-16.07 Y-.92
G0 X-15.761 Y-1.23
;TYPE:SKIN
G1 F1800 X-15.579 Y-1.609 E0.00527
G1 X-15.531 Y-1.858 E0.00318
G1 X-15.48 Y-3.09 E0.01546
G1 X-15.351 Y-3.177 E0.00195
G1 X-15.232 Y-3.342 E0.00255
G1 X-14.831 Y-3.296 E0.00506
G1 X-14.581 Y-3.321 E0.00315
G1 X-14.431 Y-3.076 E0.0036
G1 X-13.923 Y-1.051 E0.02618
G1 X-13.531 Y-.253 E0.01115
G1 X-13.467 Y0.269 E0.0066
G1 X-13.204 Y1.541 E0.01629
G1 X-13.036 Y2.149 E0.00791
G1 X-12.763 Y3.26 E0.01435
G1 X-12.598 Y3.581 E0.00453
G1 X-13.271 Y3.398 E0.00875
G1 X-13.777 Y3.082 E0.00748
G1 X-14.061 Y2.837 E0.0047
G1 X-14.538 Y2.511 E0.00725
G1 X-15.222 Y1.866 E0.01179
G1 X-16.162 Y0.863 E0.01724
G1 X-16.745 Y0.08 E0.01224
G1 X-17.043 Y-.419 E0.00729
G1 X-17.07 Y-.544 E0.0016
G1 X-16.8 Y-.727 E0.00409
G1 X-16.397 Y-.78 E0.0051
G1 X-16.03 Y-.942 E0.00503
G1 X-15.761 Y-1.23 E0.00494
G0 F5400 X-14.98 Y-3.122
G1 F1800 X-15.29 Y-2.812 E0.0055
G0 F5400 X-15.314 Y-2.222
G1 F1800 X-14.602 Y-2.934 E0.01263
G0 F5400 X-14.489 Y-2.482
G1 F1800 X-15.394 Y-1.577 E0.01605
G1 X-15.464 Y-1.507
G0 F5400 X-14.375 Y-2.029
G1 F1800 X-16.49 Y0.086 E0.03751
G0 F5400 X-16.249 Y0.41
G1 F1800 X-14.262 Y-1.577 E0.03524
G0 F5400 X-14.148 Y-1.125
G1 F1800 X-16.008 Y0.735 E0.03299
G0 F5400 X-15.734 Y1.026
G1 F1800 X-13.987 Y-.721 E0.03098
G0 F5400 X-13.799 Y-.343
G1 F1800 X-15.46 Y1.318 E0.02946
G0 F5400 X-15.187 Y1.61
G1 F1800 X-13.688 Y0.112 E0.02658
G0 F5400 X-13.605 Y0.594
G1 F1800 X-14.903 Y1.892 E0.02302
G0 F5400 X-14.612 Y2.167
G1 F1800 X-13.507 Y1.062 E0.0196
G0 F5400 X-13.41 Y1.531
G1 F1800 X-14.307 Y2.427 E0.0159
G0 F5400 X-13.972 Y2.658
G1 F1800 X-13.291 Y1.978 E0.01207
G0 F5400 X-13.175 Y2.427
G1 F1800 X-13.664 Y2.916 E0.00867
G0 F5400 X-13.317 Y3.135
G1 F1800 X-13.065 Y2.882 E0.00448
G0 F5400 X-16.391 Y-.58
G1 F1800 X-16.713 Y-.257 E0.00572
G0 F5400 X-16.693 Y-.267
G1 F1500 E-1
G0 F5400 X-13.934 Y-3.355
G0 X-12.876 Y-3.624
G0 X4.803 Y-10.463
G0 X5.666 Y-11.135
G0 X12.002 Y-14.753
G0 X11.954 Y-15.056
;TYPE:WALL-INNER
G1 F1500 E1
G1 F2700 X11.714 Y-15.063 E0.00301
G1 X11.491 Y-15.168 E0.00309
G1 X11.064 Y-15.561 E0.00728
G1 X10.832 Y-15.735 E0.00364
G1 X10.299 Y-16.287 E0.00962
G1 X10.033 Y-16.373 E0.00351
G1 X9.663 Y-16.212 E0.00506
G1 X9.062 Y-15.838 E0.00888
G1 X8.92 Y-15.796 E0.00186
G1 X8.158 Y-15.777 E0.00956
G1 X7.34 Y-16.125 E0.01115
G1 X7.069 Y-15.958 E0.00399
G1 X6.947 Y-15.831 E0.00221
G1 X6.618 Y-15.039 E0.01075
G1 X5.915 Y-11.954 E0.03968
G1 X5.839 Y-11.194 E0.00958
G1 X6.152 Y-10.79 E0.00641
G1 X6.364 Y-10.644 E0.00323
G1 X7.318 Y-9.665 E0.01714
G1 X8.082 Y-8.851 E0.014
G1 X8.192 Y-8.686 E0.00249
G1 X8.323 Y-8.059 E0.00803
G1 X8.733 Y-7.251 E0.01136
G1 X8.792 Y-7.097 E0.00207
G1 X9.354 Y-6.384 E0.01138
G1 X9.984 Y-6.756 E0.00917
G1 X10.333 Y-6.928 E0.00488
G1 X10.883 Y-7.253 E0.00801
G1 X11.412 Y-7.879 E0.01028
G1 X11.826 Y-8.661 E0.0111
G1 X12.321 Y-9.891 E0.01663
G1 X12.565 Y-10.708 E0.01069
G1 X12.62 Y-10.971 E0.00337
G1 X13.129 Y-12.89 E0.0249
G1 X13.287 Y-14.212 E0.0167
G1 X13.188 Y-14.959 E0.00945
G1 X13.059 Y-15.26 E0.00411
G1 X12.981 Y-15.327 E0.00129
G1 X12.282 Y-15.112 E0.00917
G1 X11.954 Y-15.056 E0.00417
G0 F5400 X11.771 Y-15.448
;TYPE:WALL-OUTER
G1 F1800 X11.32 Y-15.869 E0.00774
G1 X11.101 Y-16.031 E0.00342
G1 X10.518 Y-16.637 E0.01055
G1 X9.993 Y-16.807 E0.00692
G1 X9.62 Y-16.609 E0.0053
G1 X9.522 Y-16.596 E0.00124
G1 X8.882 Y-16.19 E0.0095
G1 X8.226 Y-16.179 E0.00823
G1 X7.908 Y-16.345 E0.0045
G1 X7.805 Y-16.357 E0.0013
G1 X7.454 Y-16.527 E0.00489
G1 X7.223 Y-16.524 E0.0029
G1 X6.815 Y-16.271 E0.00602
G1 X6.666 Y-16.115 E0.00271
G1 X6.455 Y-15.689 E0.00596
G1 X6.23 Y-15.149 E0.00734
G1 X5.521 Y-12.027 E0.04015
G1 X5.448 Y-11.518 E0.00645
G1 X5.435 Y-11.062 E0.00572
G1 X5.878 Y-10.49 E0.00907
G1 X6.098 Y-10.346 E0.0033
G1 X7.026 Y-9.391 E0.0167
G1 X7.823 Y-8.542 E0.0146
G1 X7.94 Y-7.929 E0.00783
G1 X8.359 Y-7.108 E0.01156
G1 X8.44 Y-6.897 E0.00283
G1 X8.82 Y-6.415 E0.0077
G1 X9.222 Y-5.842 E0.00878
G1 X10.17 Y-6.402 E0.01381
G1 X10.524 Y-6.576 E0.00495
G1 X11.145 Y-6.943 E0.00905
G1 X11.745 Y-7.653 E0.01166
G1 X12.19 Y-8.493 E0.01192
G1 X12.699 Y-9.759 E0.01711
G1 X12.953 Y-10.61 E0.01114
G1 X13.014 Y-10.9 E0.00372
G1 X13.523 Y-12.814 E0.02484
G1 X13.69 Y-14.214 E0.01768
G1 X13.577 Y-15.066 E0.01078
G1 X13.39 Y-15.502 E0.00595
G1 X13.136 Y-15.721 E0.00421
G1 X12.812 Y-15.694 E0.00408
G1 X12.214 Y-15.506 E0.00786
G1 X11.771 Y-15.448 E0.0056
G0 F5400 X11.625 Y-15.584
G0 X11.144 Y-15.069
G0 X8.535 Y-8.843
;TYPE:SKIN
G1 F1800 X8.359 Y-9.109 E0.004
G1 X7.627 Y-9.893 E0.01345
G1 X6.624 Y-10.92 E0.018
G1 X6.416 Y-11.071 E0.00322
G1 X6.228 Y-11.312 E0.00383
G1 X6.286 Y-11.879 E0.00715
G1 X6.983 Y-14.928 E0.03922
G1 X7.304 Y-15.643 E0.00983
G1 X7.38 Y-15.696 E0.00116
G1 X7.972 Y-15.443 E0.00807
G1 X8.251 Y-15.401 E0.00354
G1 X8.961 Y-15.412 E0.0089
G1 X9.272 Y-15.508 E0.00408
G1 X9.826 Y-15.866 E0.00827
G1 X10.077 Y-15.971 E0.00341
G1 X10.563 Y-15.461 E0.00883
G1 X10.823 Y-15.261 E0.00411
G1 X11.26 Y-14.863 E0.00741
G1 X11.625 Y-14.693 E0.00505
G1 X11.976 Y-14.676 E0.00441
G1 X12.474 Y-14.765 E0.00634
G1 X12.81 Y-14.876 E0.00444
G1 X12.902 Y-14.206 E0.00848
G1 X12.751 Y-12.954 E0.01581
G1 X12.265 Y-11.119 E0.0238
G1 X12.194 Y-10.807 E0.00401
G1 X11.962 Y-10.018 E0.01031
G1 X11.482 Y-8.825 E0.01613
G1 X11.089 Y-8.085 E0.01051
G1 X10.637 Y-7.548 E0.0088
G1 X10.12 Y-7.246 E0.00751
G1 X9.445 Y-6.878 E0.00964
G1 X9.125 Y-7.284 E0.00648
G1 X9.088 Y-7.383 E0.00133
G1 X8.686 Y-8.18 E0.01119
G1 X8.535 Y-8.843 E0.00853
G0 F5400 X9.456 Y-7.193
G1 F1800 X11.386 Y-9.123 E0.03423
G1 X11.456 Y-9.193
G0 F5400 X11.767 Y-10.07
G1 F1800 X9.233 Y-7.536 E0.04494
G0 F5400 X9.044 Y-7.913
G1 F1800 X12.002 Y-10.871 E0.05246
G0 F5400 X12.193 Y-11.628
G1 F1800 X8.865 Y-8.299 E0.05903
G0 F5400 X8.762 Y-8.762
G1 F1800 X12.396 Y-12.396 E0.06445
G0 F5400 X12.571 Y-13.137
G1 F1800 X8.578 Y-9.144 E0.07081
G0 F5400 X8.313 Y-9.445
G1 F1800 X12.649 Y-13.781 E0.0769
G0 F5400 X12.678 Y-14.375
G1 F1800 X8.043 Y-9.74 E0.0822
G0 F5400 X7.771 Y-10.034
G1 F1800 X12.263 Y-14.526 E0.07966
G0 F5400 X11.665 Y-14.494
G1 F1800 X7.491 Y-10.32 E0.07402
G0 F5400 X7.211 Y-10.605
G1 F1800 X11.256 Y-14.65 E0.07174
G0 F5400 X10.933 Y-14.892
G1 F1800 X6.932 Y-10.892 E0.07095
G0 F5400 X6.634 Y-11.16
G1 F1800 X10.631 Y-15.157 E0.07089
G0 F5400 X10.327 Y-15.418
G1 F1800 X6.452 Y-11.544 E0.06871
G0 F5400 X6.571 Y-12.228
G1 F1800 X10.051 Y-15.708 E0.06172
G1 X10.121 Y-15.778
G0 F5400 X8.994 Y-15.216
G1 F1800 X6.739 Y-12.961 E0.03999
G0 F5400 X6.906 Y-13.695
G1 F1800 X8.418 Y-15.206 E0.02681
G0 F5400 X7.903 Y-15.257
G1 F1800 X7.074 Y-14.428 E0.0147
G1 X7.004 Y-14.358
G0 F5400 X7.361 Y-15.281
G1 F1800 X7.505 Y-15.425 E0.00255
G0 F5400 X7.512 Y-15.381
G1 F1500 E-1
;MESH:NONMESH
G0 F600 X7.512 Y-15.381 Z0.7
G0 F5400 X8.042 Y-8.644
G0 X7.027 Y-8.13
G0 X7.552 Y11.421
;TIME_ELAPSED:17.889138
;LAYER:2
;TYPE:WALL-INNER
;MESH:C:\Users\jacob\OneDrive\Documents\Research\Core-R-Theta\EasyS4\output_models\deformed\Squirtle_1773854518.525448_deformed_tet.stl
G1 F1500 E1
G1 F3600 X7.589 Y11.123 E0.00377
G1 X7.722 Y10.912 E0.00313
G1 X8.061 Y10.738 E0.00478
G1 X8.692 Y10.643 E0.008
G1 X7.538 Y9.928 E0.01702
G1 X6.886 Y9.393 E0.01058
G1 X6.378 Y8.992 E0.00812
G1 X5.922 Y8.567 E0.00782
G1 X5.067 Y8.082 E0.01233
G1 X4.321 Y7.598 E0.01115
G1 X4.17 Y7.54 E0.00203
G1 X3.876 Y7.558 E0.00369
G1 X3.057 Y7.855 E0.01093
G1 X3.322 Y8.499 E0.00873
G1 X3.702 Y9.041 E0.0083
G1 X4.609 Y10.281 E0.01927
G1 X5.018 Y10.768 E0.00798
G1 X5.247 Y11.069 E0.00474
G1 X5.648 Y11.516 E0.00753
G1 X6.167 Y12.066 E0.00948
G1 X6.714 Y12.612 E0.00969
G1 X7.099 Y12.946 E0.00639
G1 X7.679 Y12.617 E0.00836
G1 X7.85 Y12.433 E0.00315
G1 X7.552 Y11.421 E0.01323
G0 F7200 X8.008 Y11.192
;TYPE:WALL-OUTER
G1 F1800 X8.121 Y11.134 E0.00159
G1 X9.312 Y10.954 E0.01511
G1 X9.472 Y10.896 E0.00213
G1 F1945.9 X10.382 Y11.079 E0.01077
G1 X9.538 Y10.693 E0.01077
G1 F1800 X7.792 Y9.619 E0.02571
G1 X7.134 Y9.079 E0.01067
G1 X6.627 Y8.679 E0.0081
G1 X6.16 Y8.243 E0.00801
G1 X5.254 Y7.728 E0.01307
G1 X4.504 Y7.24 E0.01122
G1 X4.232 Y7.135 E0.00366
G1 X3.794 Y7.162 E0.0055
G1 X2.922 Y7.478 E0.01163
G1 X2.559 Y7.693 E0.00529
G1 X2.969 Y8.691 E0.01353
G1 X3.378 Y9.277 E0.00896
G1 X4.294 Y10.528 E0.01944
G1 X4.7 Y11.01 E0.0079
G1 X4.939 Y11.324 E0.00495
G1 X5.357 Y11.79 E0.00785
G1 X5.884 Y12.348 E0.00963
G1 X6.441 Y12.905 E0.00988
G1 X7.049 Y13.433 E0.0101
G1 X7.99 Y12.901 E0.01356
G1 X8.043 Y12.777 E0.00169
G1 X8.32 Y12.614 E0.00403
G1 X7.953 Y11.355 E0.01645
G1 X8.008 Y11.192 E0.00216
G0 F7200 X8.121 Y11.134
G0 X8.193 Y11.124
G1 F1500 E-1
G0 F7200 X7.999 Y10.505
G0 X9.217 Y10.755
G0 X10.382 Y11.079
G1 F1500 E1
G1 F2117.6 X10.431 Y11.088 E0.00053
G1 F1500 E-1
G0 F7200 X9.217 Y10.755
G0 X7.597 Y10.979
G0 X7.172 Y11.466
;TYPE:SKIN
G1 F1500 E1
G1 F1800 X7.418 Y12.32 E0.01114
G1 X7.129 Y12.49 E0.0042
G1 X6.438 Y11.799 E0.01225
G1 X5.932 Y11.264 E0.00923
G1 X5.539 Y10.824 E0.0074
G1 X5.315 Y10.533 E0.00461
G1 X4.906 Y10.044 E0.00799
G1 X4.01 Y8.82 E0.01902
G1 X3.661 Y8.315 E0.0077
G1 X3.562 Y8.074 E0.00327
G1 X3.949 Y7.934 E0.00516
G1 X4.122 Y7.924 E0.00217
G1 X4.831 Y8.381 E0.01058
G1 X5.688 Y8.871 E0.01238
